%
O9010
G0 G17 G40 G49 G54 G80 G90 G94 G98
(NC FILE         : D:\HOANG\PROJECT\A80W133\OP#1\NC\A80W133_DW_ REV. B_POS_1.NC)
(SOURCE FILE     : D:\HOANG\PROJECT\A80W133\OP#1\NC\A80W133_DW_ REV. B_POS_1.APTSOURCE)
(POSTED AT       : 05/30/25 12:05:40)
(POST NAME       : HAAS/3-AXES POST 05/30/25 12:05:40)
(POST VERSION    : VERSION 1.35)
(***********************************************)
( START TOOL LIST )
( T2  ; TOOL:T2 - .750 DIA EM 2.5 MCL FLAT)
( T5  ; TOOL:T5-.375 DIA EM 1.5MCL FLAT)
( T24 ; TOOL:T24- 0.50 DIA 2.0 MCL END MILL BULL MILL)
( END TOOL LIST )
(***********************************************)
(POS 1)
(START GENERATION OF : 1__1---------------- POS 1 INFO ----------------)
(---------------- POS INFO ----------------)
(PROG: 9010)
(POS: 1 OF 2)
(PRGM:)
(MACH: HAAS 3-AXIS VF6)
(---------------- PROGRAMMER INFO ----------------)
(PRGR:)
(CAD: CATIA V5 R32)
(---------------- PART INFO ----------------)
(CUST:)
(DETAIL: A80W153-1 REV. B)
(MATERIAL: ALUMINUM ALLOY)
(REV:)
(REV LEVEL: 1)
(CHANGE LOG:)
(PART NAME:)
(---------------- MATERIAL INFO ----------------)
(MATERIAL SIZE - 0.250 ST X 14.10 LT X 18.40 L)
(MATERIAL SIZE - 0.250 Z X 14.10 Y X 18.4 X)
(MATERIAL TYPE - ALUMINUM ALLOY)
(---------------- PROGRAM VER ----------------)
(V1 -01/3/2025- INITIAL RELEASE TO MFG FOR HAAS 3-AXIS VF6)
(---------------- PROGRAM DESC ----------------)
(ROUGH AND FINISH OP_1)
(---------------- PROGRAM INFO ----------------)
(MATERIAL SIZE - 0.250 ST X 14.10 LT X 18.40 L)
(MATERIAL SIZE - 0.250 Z X 14.10 Y X 18.4 X)
(18.40 INCH LENGTH ALONG X-AXIS)
(14.10 INCH LENGTH ALONG Y-AXIS)
(0.250 INCH LENGTH ALONG Z-AXIS)
(----------------ZERO -----------------)
(X0 : CENTER OF THE PIN HOLE)
(Y0 :  CENTER OF THE PIN HOLE)
(Z0 : BOTTOM OF STOCK)
(--------- HOLDING INSTRUCTIONS ---------)
(HOLDING - HOLD ON SIDE_CLAMPS)
(------------------------------------)
(END OF GENERATION OF : 1__1---------------- POS 1 INFO ----------------)
(START GENERATION OF : 2__TOOL CHANGE_1_=)
G0 G17 G40 G20 G80 G90
T2 M6
(GAGE-LENGTH MIN:    6.500000,  CUTTER_STICK-OUT MIN:    2.500000)
(END OF GENERATION OF : 2__TOOL CHANGE_1_=)
(START GENERATION OF : 3__CHECK TOOL_LENGTH)
X0. Y0.
M1
G0 G54 G90 X-8.8313 Y-13. S8000 M3
G43 Z3.98 H2
/ M08
Z2.11
G1 G94 Z2.01 F120.
X-8.5313
X-7.4688
X-7.1688
Z2.11
G0 Z3.98
(END OF GENERATION OF : 3__CHECK TOOL_LENGTH)
(START GENERATION OF : 4__CHECK TOOL_DIA)
X-7.1893 Y-12.7763
Z1.8
G1 Z1.7 F120.
X-7.2381 Y-12.7837
X-7.2882 Y-12.7913
X-7.2957 Y-12.7927
X-7.303 Y-12.7947
X-7.3112 Y-12.7977
X-7.3191 Y-12.8013
X-7.3267 Y-12.8056
X-7.3339 Y-12.8106
X-7.3403 Y-12.8159
X-7.3456 Y-12.8212
X-7.3509 Y-12.8271
X-7.3548 Y-12.8323
X-7.3589 Y-12.8385
X-7.3621 Y-12.8443
X-7.3656 Y-12.8519
X-7.3684 Y-12.8594
X-7.3707 Y-12.8676
X-7.3722 Y-12.8753
X-7.3731 Y-12.8838
X-7.3732 Y-12.8918
X-7.3729 Y-12.8985
X-7.3721 Y-12.9051
X-7.3692 Y-12.9274
X-7.367 Y-12.9497
X-7.3656 Y-12.9722
X-7.365 Y-12.9947
X-7.3652 Y-13.0171
X-7.3662 Y-13.0396
X-7.368 Y-13.062
X-7.3706 Y-13.0843
X-7.374 Y-13.1065
X-7.3782 Y-13.1286
X-7.3831 Y-13.1505
X-7.3888 Y-13.1723
X-7.3953 Y-13.1938
X-7.4025 Y-13.2151
X-7.4105 Y-13.2361
X-7.4192 Y-13.2568
X-7.4287 Y-13.2772
X-7.4389 Y-13.2972
X-7.4497 Y-13.3169
X-7.4613 Y-13.3362
X-7.4735 Y-13.355
X-7.4864 Y-13.3734
X-7.4999 Y-13.3914
X-7.5141 Y-13.4088
X-7.5289 Y-13.4258
X-7.5442 Y-13.4421
X-7.5602 Y-13.458
X-7.5766 Y-13.4733
X-7.5937 Y-13.488
X-7.6112 Y-13.502
X-7.6292 Y-13.5155
X-7.6477 Y-13.5283
X-7.6666 Y-13.5404
X-7.6859 Y-13.5519
X-7.7056 Y-13.5626
X-7.7257 Y-13.5727
X-7.7462 Y-13.5821
X-7.7669 Y-13.5907
X-7.788 Y-13.5985
X-7.8093 Y-13.6057
X-7.8308 Y-13.612
X-7.8526 Y-13.6176
X-7.8745 Y-13.6225
X-7.8967 Y-13.6265
X-7.9189 Y-13.6298
X-7.9412 Y-13.6323
X-7.9636 Y-13.634
X-7.9861 Y-13.6349
X-8.0086
X-8.031 Y-13.6342
X-8.0534 Y-13.6327
X-8.0758 Y-13.6305
X-8.0981 Y-13.6274
X-8.1202 Y-13.6235
X-8.1422 Y-13.6189
X-8.164 Y-13.6135
X-8.1856 Y-13.6073
X-8.207 Y-13.6003
X-8.2281 Y-13.5926
X-8.2489 Y-13.5842
X-8.2694 Y-13.575
X-8.2896 Y-13.5651
X-8.3094 Y-13.5545
X-8.3289 Y-13.5432
X-8.3479 Y-13.5312
X-8.3665 Y-13.5186
X-8.3846 Y-13.5053
X-8.4022 Y-13.4914
X-8.4193 Y-13.4768
X-8.436 Y-13.4617
X-8.452 Y-13.446
X-8.4675 Y-13.4297
X-8.4824 Y-13.4129
X-8.4968 Y-13.3956
X-8.5104 Y-13.3777
X-8.5235 Y-13.3594
X-8.5359 Y-13.3407
X-8.5476 Y-13.3215
X-8.5586 Y-13.3019
X-8.569 Y-13.282
X-8.5786 Y-13.2617
X-8.5875 Y-13.241
X-8.5956 Y-13.2201
X-8.6031 Y-13.1989
X-8.6097 Y-13.1774
X-8.6156 Y-13.1557
X-8.6207 Y-13.1338
X-8.6251 Y-13.1118
X-8.6287 Y-13.0896
X-8.6314 Y-13.0673
X-8.6334 Y-13.0449
X-8.6346 Y-13.0225
X-8.635 Y-13.
X-8.6346 Y-12.9775
X-8.6334 Y-12.9551
X-8.6314 Y-12.9327
X-8.6287 Y-12.9104
X-8.6251 Y-12.8882
X-8.6207 Y-12.8662
X-8.6156 Y-12.8443
X-8.6097 Y-12.8226
X-8.6031 Y-12.8011
X-8.5956 Y-12.7799
X-8.5875 Y-12.759
X-8.5786 Y-12.7383
X-8.569 Y-12.718
X-8.5586 Y-12.6981
X-8.5476 Y-12.6785
X-8.5359 Y-12.6593
X-8.5235 Y-12.6406
X-8.5104 Y-12.6223
X-8.4968 Y-12.6044
X-8.4824 Y-12.5871
X-8.4675 Y-12.5703
X-8.452 Y-12.554
X-8.436 Y-12.5383
X-8.4193 Y-12.5232
X-8.4022 Y-12.5086
X-8.3846 Y-12.4947
X-8.3665 Y-12.4814
X-8.3479 Y-12.4688
X-8.3289 Y-12.4568
X-8.3094 Y-12.4455
X-8.2896 Y-12.4349
X-8.2694 Y-12.425
X-8.2489 Y-12.4158
X-8.2281 Y-12.4074
X-8.207 Y-12.3997
X-8.1856 Y-12.3927
X-8.164 Y-12.3865
X-8.1422 Y-12.3811
X-8.1202 Y-12.3765
X-8.0981 Y-12.3726
X-8.0758 Y-12.3695
X-8.0534 Y-12.3673
X-8.031 Y-12.3658
X-8.0086 Y-12.3651
X-7.9861
X-7.9636 Y-12.366
X-7.9412 Y-12.3677
X-7.9189 Y-12.3702
X-7.8967 Y-12.3735
X-7.8745 Y-12.3775
X-7.8526 Y-12.3824
X-7.8308 Y-12.388
X-7.8093 Y-12.3943
X-7.788 Y-12.4015
X-7.7669 Y-12.4093
X-7.7462 Y-12.4179
X-7.7257 Y-12.4273
X-7.7056 Y-12.4374
X-7.6859 Y-12.4481
X-7.6666 Y-12.4596
X-7.6477 Y-12.4717
X-7.6292 Y-12.4845
X-7.6112 Y-12.498
X-7.5937 Y-12.512
X-7.5766 Y-12.5267
X-7.5602 Y-12.542
X-7.5442 Y-12.5579
X-7.5289 Y-12.5742
X-7.5141 Y-12.5912
X-7.4999 Y-12.6086
X-7.4864 Y-12.6266
X-7.4735 Y-12.645
X-7.4613 Y-12.6638
X-7.4497 Y-12.6831
X-7.4389 Y-12.7028
X-7.4287 Y-12.7228
X-7.4192 Y-12.7432
X-7.4105 Y-12.7639
X-7.4025 Y-12.7849
X-7.3953 Y-12.8062
X-7.3888 Y-12.8277
X-7.3831 Y-12.8495
X-7.3782 Y-12.8714
X-7.374 Y-12.8935
X-7.3706 Y-12.9157
X-7.368 Y-12.938
X-7.3662 Y-12.9604
X-7.3652 Y-12.9829
X-7.365 Y-13.0053
X-7.3656 Y-13.0278
X-7.367 Y-13.0503
X-7.3692 Y-13.0726
X-7.3721 Y-13.0949
X-7.373 Y-13.1025
X-7.3732 Y-13.1101
X-7.3728 Y-13.1188
X-7.3717 Y-13.1274
X-7.3698 Y-13.1359
X-7.3671 Y-13.1442
X-7.364 Y-13.1519
X-7.3606 Y-13.1586
X-7.3564 Y-13.1654
X-7.3527 Y-13.1706
X-7.3479 Y-13.1764
X-7.3434 Y-13.1811
X-7.3371 Y-13.1868
X-7.3308 Y-13.1916
X-7.3236 Y-13.1963
X-7.3166 Y-13.1999
X-7.3088 Y-13.2033
X-7.3013 Y-13.2058
X-7.2948 Y-13.2075
X-7.2882 Y-13.2087
X-7.2394 Y-13.2161
X-7.1893 Y-13.2237
Z1.8
G0 Z3.98
(END OF GENERATION OF : 4__CHECK TOOL_DIA)
(START GENERATION OF : 5__CHECK TOOL_RADIUS)
X-9.174 Y-13.
Z1.6123
G1 X-8.874 Z1.61 F120.
X-8.7604
X-8.7036 Z1.7211
X-8.5262 Z2.1016
X-8.5104 Z2.11
X-8.374
X-8.1409
X-8.0563 Z2.2913
G0 Z3.98
(END OF GENERATION OF : 5__CHECK TOOL_RADIUS)
(START GENERATION OF : 6__ROUGH TOP)
X4.5935 Y-7.8604
Z.4471
G1 Z.3472 F120.
X4.8473 Y-7.7413 Z.3423
X4.8544 Y-7.7306 Z.342
X4.8473 Y-7.7197 Z.3418
X4.5935 Y-7.6007 Z.3369
X4.3452 Y-7.4705 Z.332
X4.3333 Y-7.4708 Z.3318
X4.3277 Y-7.4813 Z.3316
X4.3311 Y-7.6509 Z.3286
X4.3277 Y-7.9798 Z.3229
X4.3356 Y-7.9914 Z.3226
X4.3452 Y-7.9906 Z.3225
X4.549 Y-7.8837 Z.3185
X4.8473 Y-7.7413 Z.3127
X4.8544 Y-7.7306 Z.3125
X4.8473 Y-7.7197 Z.3122
X4.5935 Y-7.6007 Z.3073
X4.3452 Y-7.4705 Z.3024
X4.3333 Y-7.4708 Z.3022
X4.3277 Y-7.4813 Z.302
X4.3311 Y-7.6509 Z.2991
X4.3277 Y-7.9798 Z.2933
X4.3356 Y-7.9914 Z.2931
X4.3452 Y-7.9906 Z.2929
X4.549 Y-7.8837 Z.2889
X4.8473 Y-7.7413 Z.2831
X4.8544 Y-7.7306 Z.2829
X4.8473 Y-7.7197 Z.2827
X4.5935 Y-7.6007 Z.2778
X4.3452 Y-7.4705 Z.2729
X4.3333 Y-7.4708 Z.2727
X4.3277 Y-7.4813 Z.2725
X4.3311 Y-7.6509 Z.2695
X4.3277 Y-7.9798 Z.2638
X4.3356 Y-7.9914 Z.2635
X4.3452 Y-7.9906 Z.2633
X4.549 Y-7.8837 Z.2593
X4.8473 Y-7.7413 Z.2535
X4.8544 Y-7.7306 Z.2533
X4.8473 Y-7.7197 Z.2531
X4.5935 Y-7.6007 Z.2482
X4.3452 Y-7.4705 Z.2433
X4.3333 Y-7.4708 Z.2431
X4.3277 Y-7.4813 Z.2429
X4.3311 Y-7.6509 Z.2399
X4.3277 Y-7.9798 Z.2342
X4.3356 Y-7.9914 Z.2339
X4.3452 Y-7.9906 Z.2338
X4.549 Y-7.8837 Z.2298
X4.8473 Y-7.7413 Z.224
X4.8544 Y-7.7306 Z.2238
X4.8473 Y-7.7197 Z.2235
X4.5935 Y-7.6007 Z.2186
X4.3452 Y-7.4705 Z.2137
X4.3333 Y-7.4708 Z.2135
X4.3277 Y-7.4813 Z.2133
X4.3311 Y-7.6509 Z.2104
X4.3277 Y-7.9798 Z.2046
X4.3356 Y-7.9914 Z.2044
X4.3452 Y-7.9906 Z.2042
X4.549 Y-7.8837 Z.2002
X4.8473 Y-7.7413 Z.1944
X4.8544 Y-7.7306 Z.1942
X4.8473 Y-7.7197 Z.194
X4.5935 Y-7.6007 Z.1891
X4.3452 Y-7.4705 Z.1842
X4.3333 Y-7.4708 Z.184
X4.3277 Y-7.4813 Z.1838
X4.3311 Y-7.6509 Z.1808
X4.3277 Y-7.9798 Z.1751
X4.3356 Y-7.9914 Z.1748
X4.3452 Y-7.9906 Z.1746
X4.549 Y-7.8837 Z.1706
X4.8473 Y-7.7413 Z.1648
X4.8544 Y-7.7306 Z.1646
X4.8473 Y-7.7197 Z.1644
X4.5935 Y-7.6007 Z.1595
X4.3452 Y-7.4705 Z.1546
X4.3333 Y-7.4708 Z.1544
X4.3277 Y-7.4813 Z.1542
X4.3311 Y-7.6509 Z.1512
X4.3277 Y-7.9798 Z.1455
X4.3356 Y-7.9914 Z.1454 F96.
X4.3452 Y-7.9906
X4.3797 Y-7.9717
X4.5935 Y-7.8604 F120.
X4.8114 Y-7.7574
X4.8473 Y-7.7413 F96.
X4.8544 Y-7.7306
X4.8473 Y-7.7197
X4.8114 Y-7.7037
X4.5935 Y-7.6007 F120.
X4.3797 Y-7.4895
X4.3452 Y-7.4705 F96.
X4.3333 Y-7.4708
X4.3277 Y-7.4813
X4.3292 Y-7.5207
X4.3326 Y-7.7503 F120.
X4.3277 Y-7.9798
X4.4196 Y-8.198
X4.4351 Y-8.2342 F96.
X4.4487 Y-8.251
X4.4692 Y-8.2581
X4.4902 Y-8.2532
X4.5248 Y-8.2342
X4.8041 Y-8.0915 F120.
X5.0905 Y-7.9634
X5.3833 Y-7.8505
X5.6814 Y-7.753
X5.7192 Y-7.7419 F96.
X5.7277 Y-7.7305
X5.7192 Y-7.7192
X5.6814 Y-7.7081
X5.3328 Y-7.5924 F120.
X4.9918 Y-7.4556
X4.6599 Y-7.2982
X4.3381 Y-7.1209
X4.0278 Y-6.9242
X3.9953 Y-6.902 F96.
X3.9824 Y-6.9017
X3.9769 Y-6.9134
X3.9821 Y-6.9524
X4.0145 Y-7.2628 F120.
X4.0306 Y-7.5746
X4.0305 Y-7.8867
X4.0143 Y-8.1984
X3.9819 Y-8.5089
X3.9767 Y-8.5479 F96.
X3.9822 Y-8.5596
X3.995 Y-8.5593
X4.0276 Y-8.5371
X4.2093 Y-8.4187 F120.
X4.2247 Y-8.4131
X4.2411 Y-8.4142
X4.4233 Y-8.4666
X4.6055 Y-8.5191
X4.6354 Y-8.5157
X4.9583 Y-8.3503
X5.2911 Y-8.2057
X5.6323 Y-8.0825
X5.9807 Y-7.9813
X6.3348 Y-7.9024
X6.6932 Y-7.8461
X7.0545 Y-7.8126
X7.4171 Y-7.8022
X7.7797 Y-7.8148
X8.1407 Y-7.8504
X8.4988 Y-7.9089
X8.8524 Y-7.9899
X9.2002 Y-8.0933
X9.5406 Y-8.2185
X9.8725 Y-8.3651
X10.1944 Y-8.5324
X10.2287 Y-8.5518 F96.
X10.2102 Y-8.528
X10.208 Y-8.5198
X10.1601 Y-8.3451 F120.
X10.1204 Y-8.2002
X10.11 Y-8.1622 F96.
X10.1025 Y-8.1477
X10.0897 Y-8.1374
X10.0544 Y-8.1199
X9.7373 Y-7.9752 F120.
X9.4124 Y-7.849
X9.0807 Y-7.7419
X9.0721 Y-7.7305
X9.0807 Y-7.7192
X9.3995 Y-7.6166
X9.7121 Y-7.4965
X10.0175 Y-7.3591
X10.3149 Y-7.205
X10.6031 Y-7.0345
X10.8815 Y-6.8483
X10.8945 Y-6.8478
X10.9 Y-6.8596
X10.8595 Y-7.2068
X10.8392 Y-7.5558
X10.8393 Y-7.9055
X10.8597 Y-8.2545
X10.9003 Y-8.6017
X10.8948 Y-8.6135
X10.8818 Y-8.613
X10.6335 Y-8.4458
X10.3773 Y-8.2912
X10.3588 Y-8.2674
X10.3086 Y-8.0842
X10.2689 Y-7.939
X10.2585 Y-7.901 F96.
X10.251 Y-7.8865
X10.2382 Y-7.8763
X10.203 Y-7.8587
X9.9526 Y-7.7413 F120.
X9.9455 Y-7.7305
X9.9526 Y-7.7197
X10.2428 Y-7.5825
X10.5256 Y-7.4306
X10.5376 Y-7.4308
X10.5433 Y-7.4414
X10.5367 Y-7.7306
X10.5434 Y-8.0197
X10.5377 Y-8.0303
X10.5257 Y-8.0305
X10.2733 Y-7.8941
X10.2382 Y-7.8763 F96.
X10.2507 Y-7.9136
X10.3773 Y-8.2912 F120.
X10.2482 Y-8.5176
X10.2287 Y-8.5518 F96.
X10.2628 Y-8.5714
X10.5265 Y-8.7339 F120.
X10.7811 Y-8.9104
X11.0257 Y-9.1004
X11.056 Y-9.1255 F96.
X11.0663 Y-9.1279
X11.1046 Y-9.1189
X11.2474 Y-9.0882 F120.
X11.286 Y-9.0807 F96.
X11.2937 Y-9.0755
X11.2953 Y-9.0663
X11.2862 Y-9.028
X11.221 Y-8.7074 F120.
X11.1743 Y-8.3835
X11.1461 Y-8.0576
X11.1367 Y-7.7305
X11.146 Y-7.4034
X11.1741 Y-7.0774
X11.2207 Y-6.7536
X11.2858 Y-6.4329
X11.2949 Y-6.3946 F96.
X11.2933 Y-6.3855
X11.2856 Y-6.3803
X11.247 Y-6.3728
X11.1047 Y-6.3422 F120.
X11.0664 Y-6.3331 F96.
X11.056 Y-6.3355
X11.0257 Y-6.3606
X10.7429 Y-6.5785 F120.
X10.4469 Y-6.7783
X10.1391 Y-6.9593
X9.8206 Y-7.1206
X9.4927 Y-7.2617
X9.1565 Y-7.3821
X8.8135 Y-7.4812
X8.465 Y-7.5587
X8.1123 Y-7.6143
X7.7568 Y-7.6478
X7.3999 Y-7.6589
X7.043 Y-7.6478
X6.6876 Y-7.6143
X6.3349 Y-7.5587
X5.9863 Y-7.4812
X5.6433 Y-7.3821
X5.3072 Y-7.2617
X4.9792 Y-7.1206
X4.6607 Y-6.9593
X4.3529 Y-6.7783
X4.057 Y-6.5785
X3.7741 Y-6.3606
X3.7438 Y-6.3355 F96.
X3.7335 Y-6.3331
X3.6951 Y-6.3422
X3.6189 Y-6.3592 F120.
X3.5804 Y-6.3672 F96.
X3.5728 Y-6.3725
X3.5713 Y-6.3816
X3.5804 Y-6.4199
X3.6469 Y-6.7437 F120.
X3.6945 Y-7.0708
X3.7231 Y-7.4001
X3.7326 Y-7.7305
X3.723 Y-8.0609
X3.6943 Y-8.3902
X3.6466 Y-8.7173
X3.58 Y-9.0411
X3.5709 Y-9.0793 F96.
X3.5724 Y-9.0885
X3.58 Y-9.0937
X3.6185 Y-9.1018
X3.6952 Y-9.1189 F120.
X3.7335 Y-9.1279 F96.
X3.7439 Y-9.1255
X3.7742 Y-9.1004
X4.058 Y-8.8818 F120.
X4.355 Y-8.6814
X4.3704 Y-8.6758
X4.3868 Y-8.6769
X4.5688 Y-8.7293
X4.7507 Y-8.7816
X4.7806 Y-8.7782
X5.0901 Y-8.6198
X5.4091 Y-8.4817
X5.7363 Y-8.3642
X6.0703 Y-8.2681
X6.4099 Y-8.1935
X6.7535 Y-8.1409
X7.0998 Y-8.1105
X7.4473 Y-8.1024
X7.7946 Y-8.1166
X8.1403 Y-8.1531
X8.483 Y-8.2117
X8.8212 Y-8.2921
X9.1535 Y-8.3941
X9.4786 Y-8.5173
X9.7951 Y-8.661
X10.1017 Y-8.8248
X10.3972 Y-9.0079
X10.6803 Y-9.2096
X10.9499 Y-9.4291
X10.9795 Y-9.4551 F96.
X10.9905 Y-9.4576
X11.0285 Y-9.4472
X11.2448 Y-9.395 F120.
X11.4635 Y-9.3543
X11.4709 Y-9.35
X11.5995 Y-9.1965
X11.6255 Y-9.1669 F96.
X11.628 Y-9.1559
X11.6178 Y-9.1179
X11.5429 Y-8.7967 F120.
X11.4878 Y-8.4715
X11.4526 Y-8.1436
X11.4374 Y-7.8141
X11.4423 Y-7.4843
X11.4672 Y-7.1554
X11.5122 Y-6.8287
X11.577 Y-6.5053
X11.6614 Y-6.1864
X11.6728 Y-6.1487 F96.
X11.6713 Y-6.1388
X11.6628 Y-6.1335
X11.6236 Y-6.129
X11.324 Y-6.0822 F120.
X11.0285 Y-6.0139
X10.9906 Y-6.0034 F96.
X10.9796 Y-6.006
X10.95 Y-6.0319
X10.6769 Y-6.254 F120.
X10.3901 Y-6.4579
X10.0906 Y-6.6427
X9.7797 Y-6.8076
X9.4587 Y-6.952
X9.1291 Y-7.0752
X8.7921 Y-7.1768
X8.4492 Y-7.2562
X8.1019 Y-7.3132
X7.7517 Y-7.3475
X7.3999 Y-7.3589
X7.0482 Y-7.3475
X6.6979 Y-7.3132
X6.3506 Y-7.2562
X6.0077 Y-7.1768
X5.6708 Y-7.0752
X5.3411 Y-6.952
X5.0202 Y-6.8076
X4.7093 Y-6.6427
X4.4097 Y-6.4579
X4.1229 Y-6.254
X3.8499 Y-6.0319
X3.8203 Y-6.006 F96.
X3.8093 Y-6.0034
X3.7713 Y-6.0139
X3.5088 Y-6.0756 F120.
X3.243 Y-6.1205
X3.2039 Y-6.1256 F96.
X3.1955 Y-6.1309
X3.1941 Y-6.1408
X3.2056 Y-6.1785
X3.2917 Y-6.5026 F120.
X3.3575 Y-6.8313
X3.4029 Y-7.1635
X3.4276 Y-7.4979
X3.4316 Y-7.8332
X3.4148 Y-8.1681
X3.3773 Y-8.5013
X3.3192 Y-8.8316
X3.2408 Y-9.1576
X3.2303 Y-9.1955 F96.
X3.2327 Y-9.2065
X3.2584 Y-9.2363
X3.3563 Y-9.3544 F120.
X3.3636 Y-9.3587
X3.5686 Y-9.3979
X3.7714 Y-9.4472
X3.8093 Y-9.4576 F96.
X3.8203 Y-9.4551
X3.8499 Y-9.4291
X4.0587 Y-9.2567 F120.
X4.2758 Y-9.0949
X4.5008 Y-8.9442
X4.5162 Y-8.9385
X4.5327 Y-8.9396
X4.7143 Y-8.9919
X4.8959 Y-9.0441
X4.9258 Y-9.0408
X5.2259 Y-8.8875
X5.5354 Y-8.7544
X5.853 Y-8.6419
X6.1773 Y-8.5505
X6.5069 Y-8.4808
X6.8404 Y-8.4329
X7.1763 Y-8.4071
X7.5132 Y-8.4034
X7.8496 Y-8.422
X8.1841 Y-8.4627
X8.5151 Y-8.5253
X8.8413 Y-8.6096
X9.1613 Y-8.7152
X9.4736 Y-8.8416
X9.7769 Y-8.9884
X10.0698 Y-9.1548
X10.3512 Y-9.3401
X10.6197 Y-9.5436
X10.8743 Y-9.7643
X10.9031 Y-9.7912 F96.
X10.9148 Y-9.7938
X10.9523 Y-9.7818
X11.1607 Y-9.7226 F120.
X11.372 Y-9.6751
X11.5857 Y-9.6394
X11.6247 Y-9.6341 F96.
X11.6326 Y-9.6296
X11.6567 Y-9.5985
X11.7915 Y-9.4332 F120.
X11.9333 Y-9.2739
X11.9603 Y-9.2452 F96.
X11.9629 Y-9.2336
X11.9515 Y-9.1959
X11.8661 Y-8.8725 F120.
X11.802 Y-8.5441
X11.7595 Y-8.2123
X11.7389 Y-7.8784
X11.7401 Y-7.5438
X11.7632 Y-7.2101
X11.808 Y-6.8785
X11.8745 Y-6.5507
X11.9623 Y-6.2278
X12.071 Y-5.9114
X12.0851 Y-5.8747 F96.
X12.0839 Y-5.8638
X12.0743 Y-5.8586
X12.0349 Y-5.8579
X11.7602 Y-5.8419 F120.
X11.4873 Y-5.8067
X11.2176 Y-5.7524
X10.9523 Y-5.6792
X10.9148 Y-5.6672 F96.
X10.9031 Y-5.6699
X10.8743 Y-5.6967
X10.6118 Y-5.9239 F120.
X10.3344 Y-6.1328
X10.0434 Y-6.3223
X9.7403 Y-6.4917
X9.4264 Y-6.6401
X9.1031 Y-6.7668
X8.772 Y-6.8713
X8.4346 Y-6.9531
X8.0923 Y-7.0118
X7.7469 Y-7.0471
X7.3999 Y-7.0589
X7.0529 Y-7.0471
X6.7075 Y-7.0118
X6.3652 Y-6.9531
X6.0278 Y-6.8713
X5.6967 Y-6.7668
X5.3734 Y-6.6401
X5.0595 Y-6.4917
X4.7564 Y-6.3223
X4.4655 Y-6.1328
X4.1881 Y-5.9239
X3.9255 Y-5.6967
X3.8967 Y-5.6699 F96.
X3.885 Y-5.6672
X3.8475 Y-5.6792
X3.5989 Y-5.7483 F120.
X3.3464 Y-5.8009
X3.0909 Y-5.8368
X2.8336 Y-5.8557
X2.7943 Y-5.8571 F96.
X2.7848 Y-5.8624
X2.7836 Y-5.8732
X2.7978 Y-5.9099
X2.9077 Y-6.2301 F120.
X2.9963 Y-6.5569
X3.063 Y-6.8888
X3.1076 Y-7.2244
X3.1299 Y-7.5622
X3.1297 Y-7.9007
X3.1072 Y-8.2385
X3.0624 Y-8.574
X2.9954 Y-8.9059
X2.9067 Y-9.2326
X2.895 Y-9.2702 F96.
X2.8975 Y-9.2818
X2.9242 Y-9.3108
X3.0623 Y-9.4691 F120.
X3.1937 Y-9.6331
X3.2015 Y-9.6376
X3.4194 Y-9.6735
X3.635 Y-9.7216
X3.8475 Y-9.7818
X3.8851 Y-9.7938 F96.
X3.8968 Y-9.7912
X3.9256 Y-9.7643
X4.1547 Y-9.5643 F120.
X4.3953 Y-9.3784
X4.6466 Y-9.207
X4.6621 Y-9.2012
X4.6786 Y-9.2023
X4.8599 Y-9.2545
X5.0411 Y-9.3067
X5.071 Y-9.3033
X5.362 Y-9.155
X5.6623 Y-9.0269
X5.9706 Y-8.9194
X6.2855 Y-8.833
X6.6055 Y-8.7682
X6.9292 Y-8.7253
X7.255 Y-8.7044
X7.5815 Y-8.7056
X7.9072 Y-8.729
X8.2306 Y-8.7744
X8.5501 Y-8.8416
X8.8643 Y-8.9304
X9.1718 Y-9.0403
X9.4711 Y-9.1707
X9.7609 Y-9.3212
X10.0398 Y-9.4909
X10.3066 Y-9.6792
X10.56 Y-9.8852
X10.7988 Y-10.1078
X10.8266 Y-10.1357 F96.
X10.8392 Y-10.1385
X10.876 Y-10.1247
X11.0888 Y-10.0537 F120.
X11.3055 Y-9.9961
X11.5254 Y-9.9521
X11.7476 Y-9.9218
X11.7868 Y-9.9179 F96.
X11.7953 Y-9.9131
X11.8185 Y-9.8813
X11.9614 Y-9.6977 F120.
X12.1133 Y-9.5215
X12.2738 Y-9.353
X12.3018 Y-9.3253 F96.
X12.3047 Y-9.313
X12.2919 Y-9.2758
X12.1983 Y-8.9662 F120.
X12.1258 Y-8.6511
X12.0745 Y-8.3318
X12.0449 Y-8.0099
X12.0369 Y-7.6866
X12.0506 Y-7.3635
X12.0861 Y-7.0421
X12.143 Y-6.7238
X12.2212 Y-6.4101
X12.3202 Y-6.1022
X12.4398 Y-5.8018
X12.4557 Y-5.7658 F96.
Y-5.7561
X12.4398 Y-5.7201
X12.3872 Y-5.5952 F120.
X12.3726 Y-5.5586 F96.
X12.3609 Y-5.5511
X12.3216 Y-5.5535
X12.0338 Y-5.5578 F120.
X11.7467 Y-5.5391
X11.4619 Y-5.4976
X11.1814 Y-5.4336
X10.9068 Y-5.3475
X10.8698 Y-5.334 F96.
X10.8606 Y-5.3345
X10.825 Y-5.3514
X10.7813 Y-5.3716 F120.
X10.5375 Y-5.5953
X10.2826 Y-5.7999
X10.0144 Y-5.9867
X9.7341 Y-6.1549
X9.4431 Y-6.3036
X9.1426 Y-6.4323
X8.8341 Y-6.5402
X8.519 Y-6.627
X8.1987 Y-6.6921
X7.8748 Y-6.7354
X7.5486 Y-6.7566
X7.2218 Y-6.7556
X6.8958 Y-6.7324
X6.5721 Y-6.6872
X6.2522 Y-6.62
X5.9376 Y-6.5313
X5.6298 Y-6.4215
X5.3301 Y-6.291
X5.04 Y-6.1405
X4.7608 Y-5.9706
X4.4937 Y-5.7822
X4.2401 Y-5.5761
X4.001 Y-5.3532
X3.9733 Y-5.3253 F96.
X3.9606 Y-5.3225
X3.9238 Y-5.3363
X3.6437 Y-5.4267 F120.
X3.3573 Y-5.494
X3.0663 Y-5.5377
X2.7727 Y-5.5576
X2.4784 Y-5.5535
X2.4391 Y-5.5512 F96.
X2.4274 Y-5.5586
X2.4128 Y-5.5952
X2.3934 Y-5.6425 F120.
X2.3781 Y-5.6788 F96.
X2.3782 Y-5.6884
X2.3948 Y-5.7242
X2.5235 Y-6.0327 F120.
X2.6304 Y-6.3495
X2.7151 Y-6.6729
X2.7772 Y-7.0014
X2.8163 Y-7.3334
X2.8322 Y-7.6673
X2.8249 Y-8.0016
X2.7944 Y-8.3345
X2.7409 Y-8.6645
X2.6646 Y-8.99
X2.5659 Y-9.3094
X2.5528 Y-9.3465 F96.
X2.5556 Y-9.3588
X2.5833 Y-9.3868
X2.8038 Y-9.6279 F120.
X3.0069 Y-9.8838
X3.0301 Y-9.9156 F96.
X3.0385 Y-9.9204
X3.0777 Y-9.9246
X3.3648 Y-9.9685 F120.
X3.6474 Y-10.0353
X3.9238 Y-10.1247
X3.9607 Y-10.1385 F96.
X3.9733 Y-10.1358
X4.0011 Y-10.1078
X4.2496 Y-9.8767 F120.
X4.5139 Y-9.6637
X4.7925 Y-9.4699
X4.808 Y-9.464
X4.8247 Y-9.4651
X5.0055 Y-9.5172
X5.1863 Y-9.5692
X5.2162 Y-9.5658
X5.4984 Y-9.4224
X5.79 Y-9.2992
X6.0895 Y-9.1967
X6.3954 Y-9.1154
X6.7063 Y-9.0558
X7.0206 Y-9.0182
X7.3367 Y-9.0026
X7.6532 Y-9.0093
X7.9684 Y-9.0381
X8.2809 Y-9.089
X8.589 Y-9.1617
X8.8912 Y-9.2557
X9.1861 Y-9.3708
X9.4722 Y-9.5062
X9.7481 Y-9.6613
X10.0125 Y-9.8355
X10.264 Y-10.0277
X10.5014 Y-10.2371
X10.7235 Y-10.4626
X10.75 Y-10.4917 F96.
X10.7636 Y-10.4945
X10.7996 Y-10.4786
X11.0133 Y-10.394 F120.
X11.2323 Y-10.3245
X11.4556 Y-10.2703
X11.6821 Y-10.2318
X11.9108 Y-10.209
X11.9501 Y-10.2067 F96.
X11.9593 Y-10.2015
X11.9815 Y-10.1691
X12.1262 Y-9.9722 F120.
X12.2816 Y-9.7837
X12.4474 Y-9.6042
X12.6229 Y-9.4342
X12.6521 Y-9.4078 F96.
X12.6552 Y-9.3946
X12.6408 Y-9.358
X12.5404 Y-9.0702 F120.
X12.4598 Y-8.7763
X12.3991 Y-8.4776
X12.3588 Y-8.1755
X12.3389 Y-7.8714
X12.3397 Y-7.5666
X12.361 Y-7.2626
X12.4027 Y-6.9607
X12.4648 Y-6.6623
X12.5468 Y-6.3687
X12.6485 Y-6.0814
X12.7694 Y-5.8016
X12.7864 Y-5.7661 F96.
Y-5.7558
X12.7694 Y-5.7203
X12.6724 Y-5.5001 F120.
X12.5873 Y-5.2751
X12.5746 Y-5.2378 F96.
X12.5618 Y-5.2299
X12.5228 Y-5.2349
X12.2467 Y-5.2566 F120.
X11.9698 Y-5.2553
X11.6939 Y-5.2308
X11.4211 Y-5.1834
X11.1532 Y-5.1133
X10.8921 Y-5.0211
X10.8556 Y-5.0063 F96.
X10.8457 Y-5.0067
X10.8106 Y-5.0246
X10.6084 Y-5.1204 F120.
X10.3737 Y-5.3403
X10.1278 Y-5.5409
X9.8684 Y-5.7238
X9.5968 Y-5.888
X9.3144 Y-6.0326
X9.0225 Y-6.1571
X8.7225 Y-6.2607
X8.4161 Y-6.343
X8.1045 Y-6.4036
X7.7895 Y-6.4421
X7.4726 Y-6.4583
X7.1553 Y-6.4523
X6.8393 Y-6.4239
X6.526 Y-6.3735
X6.217 Y-6.3011
X5.9139 Y-6.2072
X5.6181 Y-6.0922
X5.3311 Y-5.9567
X5.0544 Y-5.8014
X4.7893 Y-5.627
X4.5371 Y-5.4344
X4.299 Y-5.2245
X4.0763 Y-4.9984
X4.0498 Y-4.9693 F96.
X4.0362 Y-4.9665
X4.0002 Y-4.9824
X3.7659 Y-5.0743 F120.
X3.5253 Y-5.148
X3.2798 Y-5.2033
X3.0308 Y-5.2398
X2.7797 Y-5.2573
X2.528 Y-5.2556
X2.2772 Y-5.2349
X2.2382 Y-5.2299 F96.
X2.2254 Y-5.2378
X2.2127 Y-5.2751
X2.1424 Y-5.4634 F120.
X2.0638 Y-5.6485
X2.0474 Y-5.6843 F96.
X2.0476 Y-5.6946
X2.0652 Y-5.7298
X2.1946 Y-6.0161 F120.
X2.3037 Y-6.3107
X2.392 Y-6.6121
X2.4592 Y-6.919
X2.5048 Y-7.2298
X2.5288 Y-7.5431
X2.5308 Y-7.8572
X2.511 Y-8.1707
X2.4694 Y-8.4821
X2.4063 Y-8.7898
X2.3219 Y-9.0924
X2.2166 Y-9.3884
X2.202 Y-9.425 F96.
X2.205 Y-9.4381
X2.2338 Y-9.4649
X2.4535 Y-9.6854 F120.
X2.6569 Y-9.9209
X2.843 Y-10.1705
X2.8653 Y-10.2029 F96.
X2.8744 Y-10.2081
X2.9136 Y-10.2107
X3.1928 Y-10.2428 F120.
X3.4683 Y-10.2984
X3.7381 Y-10.3772
X4.0002 Y-10.4786
X4.0362 Y-10.4946 F96.
X4.0499 Y-10.4917
X4.0763 Y-10.4626
X4.2743 Y-10.2602 F120.
X4.4845 Y-10.0706
X4.7062 Y-9.8945
X4.9384 Y-9.7327
X4.9541 Y-9.7268
X4.9708 Y-9.7279
X5.1511 Y-9.7798
X5.3315 Y-9.8317
X5.3614 Y-9.8283
X5.6355 Y-9.6896
X5.9189 Y-9.5711
X6.2102 Y-9.4737
X6.5079 Y-9.3977
X6.8103 Y-9.3437
X7.1158 Y-9.3118
X7.4228 Y-9.3022
X7.7298 Y-9.3151
X8.0349 Y-9.3503
X8.3367 Y-9.4077
X8.6335 Y-9.4869
X8.9238 Y-9.5875
X9.2059 Y-9.709
X9.4784 Y-9.8507
X9.7399 Y-10.0119
X9.9889 Y-10.1918
X10.2242 Y-10.3893
X10.4444 Y-10.6035
X10.6485 Y-10.8331
X10.6734 Y-10.8636 F96.
X10.6882 Y-10.8665
X10.7229 Y-10.848
X10.9348 Y-10.7469 F120.
X11.154 Y-10.6627
X11.379 Y-10.5958
X11.6085 Y-10.5466
X11.8412 Y-10.5154
X12.0756 Y-10.5025
X12.115 Y-10.5021 F96.
X12.1249 Y-10.4966
X12.146 Y-10.4633
X12.2892 Y-10.2541 F120.
X12.4452 Y-10.0542
X12.6133 Y-9.8645
X12.793 Y-9.6856
X12.9835 Y-9.5182
X13.0139 Y-9.4933 F96.
X13.0173 Y-9.4792
X13.0011 Y-9.4433
X12.8841 Y-9.152 F120.
X12.7892 Y-8.8528
X12.7169 Y-8.5474
X12.6674 Y-8.2374
X12.6412 Y-7.9246
X12.6384 Y-7.6107
X12.6589 Y-7.2974
X12.7028 Y-6.9866
X12.7696 Y-6.6799
X12.8591 Y-6.379
X12.9708 Y-6.0856
X13.104 Y-5.8014
X13.1222 Y-5.7665 F96.
Y-5.7555
X13.104 Y-5.7206
X12.9835 Y-5.4659 F120.
X12.8802 Y-5.2037
X12.7948 Y-4.9352
X12.7843 Y-4.8973 F96.
X12.779 Y-4.8902
X12.7703 Y-4.8888
X12.7318 Y-4.897
X12.4981 Y-4.9356 F120.
X12.262 Y-4.9558
X12.0251 Y-4.9573
X11.7887 Y-4.9402
X11.5545 Y-4.9045
X11.3238 Y-4.8506
X11.098 Y-4.7787
X10.8786 Y-4.6892
X10.8429 Y-4.6727 F96.
X10.8321 Y-4.6731
X10.7977 Y-4.6923
X10.6187 Y-4.785 F120.
X10.4352 Y-4.8685
X10.2093 Y-5.0851
X9.9722 Y-5.2823
X9.7212 Y-5.4615
X9.4579 Y-5.6219
X9.1835 Y-5.7626
X8.8996 Y-5.8829
X8.6076 Y-5.9821
X8.3091 Y-6.0596
X8.0058 Y-6.1151
X7.6992 Y-6.1483
X7.391 Y-6.1589
X7.0829 Y-6.147
X6.7765 Y-6.1125
X6.4734 Y-6.0557
X6.1753 Y-5.9769
X5.8837 Y-5.8765
X5.6003 Y-5.7551
X5.3265 Y-5.6132
X5.0638 Y-5.4517
X4.8136 Y-5.2714
X4.5774 Y-5.0733
X4.3562 Y-4.8584
X4.1513 Y-4.6279
X4.1264 Y-4.5974 F96.
X4.1116 Y-4.5945
X4.0769 Y-4.613
X3.843 Y-4.7234 F120.
X3.6006 Y-4.8133
X3.3514 Y-4.8821
X3.0972 Y-4.9292
X2.8398 Y-4.9544
X2.5813 Y-4.9574
X2.3234 Y-4.9383
X2.0682 Y-4.8971
X2.0297 Y-4.8889 F96.
X2.021 Y-4.8903
X2.0157 Y-4.8973
X2.0052 Y-4.9352
X1.9279 Y-5.1805 F120.
X1.8358 Y-5.4206
X1.7292 Y-5.6546
X1.7116 Y-5.6899 F96.
X1.7118 Y-5.7009
X1.7306 Y-5.7355
X1.8623 Y-6.0026 F120.
X1.9747 Y-6.2783
X2.0673 Y-6.5613
X2.1398 Y-6.8502
X2.1916 Y-7.1434
X2.2226 Y-7.4396
X2.2326 Y-7.7372
X2.2215 Y-8.0348
X2.1895 Y-8.3309
X2.1366 Y-8.6239
X2.0631 Y-8.9125
X1.9694 Y-9.1952
X1.856 Y-9.4705
X1.8396 Y-9.5063 F96.
X1.8428 Y-9.5204
X1.873 Y-9.5456
X2.0996 Y-9.7516 F120.
X2.31 Y-9.9741
X2.5031 Y-10.2119
X2.6777 Y-10.4635
X2.6988 Y-10.4968 F96.
X2.7087 Y-10.5023
X2.748 Y-10.503
X2.9784 Y-10.5174 F120.
X3.2069 Y-10.5494
X3.4324 Y-10.5988
X3.6534 Y-10.6653
X3.8687 Y-10.7485
X4.0769 Y-10.848
X4.1117 Y-10.8666 F96.
X4.1265 Y-10.8636
X4.1514 Y-10.8331
X4.3605 Y-10.5982 F120.
X4.5866 Y-10.3795
X4.8284 Y-10.1783
X5.0845 Y-9.9957
X5.1002 Y-9.9896
X5.117 Y-9.9907
X5.2969 Y-10.0425
X5.4767 Y-10.0942
X5.5066 Y-10.0909
X5.7695 Y-9.9581
X6.0416 Y-9.8456
X6.3214 Y-9.7538
X6.6073 Y-9.6833
X6.8977 Y-9.6345
X7.191 Y-9.6078
X7.4854 Y-9.6031
X7.7794 Y-9.6206
X8.0712 Y-9.6602
X8.3592 Y-9.7216
X8.6418 Y-9.8045
X8.9173 Y-9.9084
X9.1842 Y-10.0328
X9.4411 Y-10.1768
X9.6863 Y-10.3398
X9.9186 Y-10.5208
X10.1366 Y-10.7188
X10.3392 Y-10.9325
X10.525 Y-11.1609
X10.6176 Y-11.2103
X10.6522 Y-11.2291 F96.
X10.6643 Y-11.2287
X10.6976 Y-11.2077
X10.8995 Y-11.0945 F120.
X11.1103 Y-10.9988
X11.3284 Y-10.9215
X11.5524 Y-10.8631
X11.7805 Y-10.824
X12.0112 Y-10.8045
X12.2426 Y-10.8047
X12.282 Y-10.8067 F96.
X12.2929 Y-10.8007
X12.3125 Y-10.7665
X12.4518 Y-10.5442 F120.
X12.6064 Y-10.3321
X12.7753 Y-10.1313
X12.9578 Y-9.9428
X13.153 Y-9.7674
X13.3599 Y-9.6061
X13.3919 Y-9.5831 F96.
X13.3955 Y-9.5679
X13.3772 Y-9.5331
X13.2495 Y-9.2625 F120.
X13.1429 Y-8.9829
X13.0579 Y-8.6959
X12.9952 Y-8.4034
X12.9549 Y-8.1068
X12.9375 Y-7.8081
X12.9429 Y-7.5089
X12.9712 Y-7.211
X13.0222 Y-6.9162
X13.0956 Y-6.626
X13.1909 Y-6.3424
X13.3077 Y-6.0669
X13.4451 Y-5.8011
X13.4647 Y-5.7669 F96.
Y-5.755
X13.4451 Y-5.7209
X13.3298 Y-5.5015 F120.
X13.2287 Y-5.2752
X13.142 Y-5.043
X13.0703 Y-4.8057
X13.0137 Y-4.5644
X13.0061 Y-4.5258 F96.
X13.0005 Y-4.5178
X12.9908 Y-4.5168
X12.9534 Y-4.5291
X12.723 Y-4.592 F120.
X12.4879 Y-4.6344
X12.2501 Y-4.656
X12.0113 Y-4.6566
X11.7734 Y-4.6361
X11.5381 Y-4.5948
X11.3074 Y-4.5329
X11.0831 Y-4.4511
X10.8668 Y-4.3498
X10.8321 Y-4.3312 F96.
X10.8202 Y-4.3316
X10.7867 Y-4.3522
X10.5294 Y-4.4945 F120.
X10.2616 Y-4.6158
X10.0442 Y-4.8299
X9.8153 Y-5.0242
X9.5722 Y-5.2004
X9.3163 Y-5.3574
X9.0492 Y-5.4943
X8.7723 Y-5.6103
X8.4873 Y-5.7047
X8.196 Y-5.7771
X7.8999 Y-5.8268
X7.6009 Y-5.8537
X7.3007 Y-5.8576
X7.0012 Y-5.8385
X6.7039 Y-5.7965
X6.4108 Y-5.7318
X6.1235 Y-5.6448
X5.8436 Y-5.536
X5.573 Y-5.4061
X5.3131 Y-5.2558
X5.0655 Y-5.0861
X4.8317 Y-4.8978
X4.613 Y-4.6922
X4.4107 Y-4.4704
X4.2259 Y-4.2338
X4.2031 Y-4.2017 F96.
X4.1956 Y-4.1969
X4.1868 Y-4.1987
X4.154 Y-4.2204
X3.9383 Y-4.3469 F120.
X3.7119 Y-4.4531
X3.4767 Y-4.5378
X3.2346 Y-4.6006
X2.9878 Y-4.6409
X2.7384 Y-4.6582
X2.4884 Y-4.6524
X2.24 Y-4.6237
X1.9953 Y-4.5722
X1.9876 Y-4.5729
X1.8081 Y-4.6464
X1.7713 Y-4.6602 F96.
X1.7638 Y-4.6687
X1.7548 Y-4.707
X1.6868 Y-4.954 F120.
X1.6028 Y-5.196
X1.5031 Y-5.432
X1.3881 Y-5.661
X1.3692 Y-5.6955 F96.
X1.3694 Y-5.7073
X1.3895 Y-5.7411
X1.5252 Y-5.9914 F120.
X1.6424 Y-6.251
X1.7404 Y-6.5183
X1.8186 Y-6.7921
X1.8767 Y-7.0708
X1.9144 Y-7.353
X1.9315 Y-7.6372
X1.9279 Y-7.9219
X1.9035 Y-8.2056
X1.8586 Y-8.4868
X1.7934 Y-8.764
X1.7082 Y-9.0356
X1.6034 Y-9.3004
X1.4797 Y-9.5568
X1.4611 Y-9.5915 F96.
X1.4646 Y-9.6067
X1.4963 Y-9.63
X1.6962 Y-9.789 F120.
X1.8848 Y-9.9612
X2.0614 Y-10.1458
X2.225 Y-10.342
X2.3749 Y-10.5488
X2.5104 Y-10.7653
X2.53 Y-10.7995 F96.
X2.5408 Y-10.8055
X2.5802 Y-10.8038
X2.8171 Y-10.8058 F120.
X3.053 Y-10.8285
X3.2859 Y-10.8717
X3.5142 Y-10.9351
X3.7361 Y-11.0181
X3.95 Y-11.1202
X4.154 Y-11.2406
X4.1869 Y-11.2623 F96.
X4.1956 Y-11.2641
X4.2031 Y-11.2593
X4.226 Y-11.2273
X4.398 Y-11.0057 F120.
X4.5856 Y-10.797
X4.7876 Y-10.6022
X5.003 Y-10.4225
X5.2307 Y-10.2587
X5.2465 Y-10.2525
X5.2634 Y-10.2536
X5.4427 Y-10.3052
X5.6219 Y-10.3568
X5.6518 Y-10.3534
X5.9118 Y-10.223
X6.1815 Y-10.1139
X6.4591 Y-10.0269
X6.7427 Y-9.9625
X7.0307 Y-9.9211
X7.321 Y-9.903
X7.6118 Y-9.9084
X7.9013 Y-9.9371
X8.1875 Y-9.9891
X8.4687 Y-10.0639
X8.7428 Y-10.1611
X9.0083 Y-10.28
X9.2633 Y-10.4199
X9.5063 Y-10.5799
X9.7356 Y-10.7589
X9.9497 Y-10.9558
X10.1473 Y-11.1693
X10.3271 Y-11.398
X10.4836 Y-11.4788
X10.6315 Y-11.5635
X10.665 Y-11.5842 F96.
X10.6784 Y-11.5836
X10.7101 Y-11.5602
X10.8983 Y-11.437 F120.
X11.0972 Y-11.3317
X11.305 Y-11.2455
X11.5199 Y-11.1791
X11.7402 Y-11.1329
X11.9637 Y-11.1075
X12.1887 Y-11.103
X12.4131 Y-11.1195
X12.4521 Y-11.1245 F96.
X12.4643 Y-11.118
X12.4819 Y-11.0828
X12.6149 Y-10.8451 F120.
X12.7661 Y-10.6185
X12.9346 Y-10.4045
X13.1195 Y-10.2044
X13.3195 Y-10.0195
X13.5334 Y-9.8509
X13.7599 Y-9.6996
X13.7936 Y-9.6792 F96.
X13.799 Y-9.6718
X13.7975 Y-9.6628
X13.7767 Y-9.6294
X13.635 Y-9.3784 F120.
X13.5138 Y-9.117
X13.4138 Y-8.8467
X13.3357 Y-8.5694
X13.2799 Y-8.2866
X13.2469 Y-8.0003
X13.2368 Y-7.7123
X13.2496 Y-7.4245
X13.2854 Y-7.1385
X13.3439 Y-6.8563
X13.4246 Y-6.5797
X13.5272 Y-6.3104
X13.6509 Y-6.0502
X13.795 Y-5.8006
X13.8162 Y-5.7674 F96.
Y-5.7546
X13.795 Y-5.7214
X13.6541 Y-5.4778 F120.
X13.5326 Y-5.224
X13.4312 Y-4.9615
X13.3506 Y-4.6918
X13.2912 Y-4.4168
X13.2533 Y-4.1379
X13.2498 Y-4.0987 F96.
X13.2437 Y-4.0894
X13.2326 Y-4.0892
X13.1975 Y-4.107
X12.9941 Y-4.1966 F120.
X12.7833 Y-4.2672
X12.5669 Y-4.318
X12.3467 Y-4.3486
X12.1246 Y-4.3589
X11.9026 Y-4.3487
X11.6824 Y-4.3181
X11.466 Y-4.2673
X11.2552 Y-4.1969
X11.0517 Y-4.1073
X10.8574 Y-3.9994
X10.8241 Y-3.9784 F96.
X10.811 Y-3.9787
X10.7785 Y-4.001
X10.5577 Y-4.1389 F120.
X10.3269 Y-4.2595
X10.0875 Y-4.362
X9.8778 Y-4.575
X9.6563 Y-4.7674
X9.4199 Y-4.9413
X9.1701 Y-5.0954
X8.9087 Y-5.2287
X8.6373 Y-5.3403
X8.3578 Y-5.4296
X8.0719 Y-5.4958
X7.7816 Y-5.5387
X7.4888 Y-5.5578
X7.1953 Y-5.5531
X6.9033 Y-5.5246
X6.6145 Y-5.4725
X6.3309 Y-5.3971
X6.0543 Y-5.2989
X5.7867 Y-5.1786
X5.5296 Y-5.037
X5.285 Y-4.875
X5.0542 Y-4.6936
X4.839 Y-4.4942
X4.6407 Y-4.2778
X4.4606 Y-4.0462
X4.2999 Y-3.8006
X4.2798 Y-3.7667 F96.
X4.2715 Y-3.761
X4.2619 Y-3.7638
X4.232 Y-3.7894
X4.0587 Y-3.9229 F120.
X3.874 Y-4.0401
X3.6794 Y-4.14
X3.4766 Y-4.222
X3.2672 Y-4.2852
X3.0529 Y-4.3292
X2.8355 Y-4.3536
X2.6168 Y-4.3582
X2.3986 Y-4.343
X2.1827 Y-4.308
X1.9708 Y-4.2537
X1.9623 Y-4.2543
X1.7589 Y-4.3436
X1.5502 Y-4.4194
X1.5127 Y-4.4314 F96.
X1.5046 Y-4.4405
X1.4973 Y-4.4792
X1.4398 Y-4.7288 F120.
X1.3646 Y-4.9736
X1.2724 Y-5.2125
X1.1634 Y-5.4442
X1.0383 Y-5.6677
X1.0177 Y-5.7012 F96.
X1.0179 Y-5.714
X1.0397 Y-5.7468
X1.1817 Y-5.9821 F120.
X1.3054 Y-6.2275
X1.4101 Y-6.4815
X1.4952 Y-6.7428
X1.5602 Y-7.0098
X1.6046 Y-7.281
X1.6284 Y-7.5548
X1.6312 Y-7.8296
X1.6132 Y-8.1038
X1.5743 Y-8.3758
X1.5149 Y-8.6441
X1.4353 Y-8.9071
X1.3359 Y-9.1633
X1.2173 Y-9.4112
X1.0802 Y-9.6494
X1.0591 Y-9.6826 F96.
X1.0575 Y-9.6916
X1.0629 Y-9.6991
X1.0963 Y-9.7198
X1.3164 Y-9.8701 F120.
X1.5242 Y-10.0368
X1.7186 Y-10.219
X1.8984 Y-10.4156
X2.0626 Y-10.6255
X2.2101 Y-10.8473
X2.3402 Y-11.0799
X2.3579 Y-11.1151 F96.
X2.3699 Y-11.1215
X2.409 Y-11.1169
X2.6261 Y-11.1026 F120.
X2.8436 Y-11.108
X3.0598 Y-11.1329
X3.2728 Y-11.1773
X3.481 Y-11.2406
X3.6826 Y-11.3224
X3.876 Y-11.4221
X4.0597 Y-11.5388
X4.232 Y-11.6716
X4.2619 Y-11.6973 F96.
X4.2716 Y-11.7
X4.2799 Y-11.6943
X4.2999 Y-11.6604
X4.4432 Y-11.4395 F120.
X4.6021 Y-11.2297
X4.776 Y-11.0319
X4.9638 Y-10.8474
X5.1645 Y-10.677
X5.3771 Y-10.5217
X5.393 Y-10.5155
X5.41 Y-10.5165
X5.5885 Y-10.5679
X5.7671 Y-10.6193
X5.797 Y-10.6159
X6.0392 Y-10.4946
X6.2905 Y-10.3935
X6.5493 Y-10.3133
X6.8137 Y-10.2545
X7.0821 Y-10.2175
X7.3526 Y-10.2025
X7.6234 Y-10.2097
X7.8927 Y-10.239
X8.1587 Y-10.2903
X8.4197 Y-10.3631
X8.6738 Y-10.4569
X8.9194 Y-10.5713
X9.1548 Y-10.7053
X9.3785 Y-10.8581
X9.589 Y-11.0287
X9.7848 Y-11.2159
X9.9646 Y-11.4185
X10.1273 Y-11.6351
X10.1346 Y-11.6412
X10.3129 Y-11.7278
X10.4853 Y-11.8258
X10.651 Y-11.9345
X10.6831 Y-11.9574 F96.
X10.698 Y-11.9565
X10.7272 Y-11.9302
X10.9009 Y-11.7926 F120.
X11.0879 Y-11.6739
X11.2864 Y-11.5754
X11.4941 Y-11.4983
X11.7088 Y-11.4434
X11.928 Y-11.4113
X12.1493 Y-11.4023
X12.3704 Y-11.4165
X12.5888 Y-11.4538
X12.6271 Y-11.4628 F96.
X12.6409 Y-11.4558
X12.656 Y-11.4195
X12.7701 Y-11.1787 F120.
X12.9041 Y-10.9483
X13.0571 Y-10.7301
X13.2278 Y-10.5254
X13.4152 Y-10.336
X13.6179 Y-10.1629
X13.8344 Y-10.0075
X14.0632 Y-9.871
X14.0693 Y-9.8655
X14.1578 Y-9.7372
X14.1802 Y-9.7048 F96.
X14.18 Y-9.6911
X14.1569 Y-9.6593
X14.0063 Y-9.4297 F120.
X13.8752 Y-9.1884
X13.7646 Y-8.937
X13.6752 Y-8.6774
X13.6076 Y-8.4113
X13.5623 Y-8.1405
X13.5396 Y-7.8668
Y-7.5922
X13.5623 Y-7.3186
X13.6076 Y-7.0478
X13.6753 Y-6.7817
X13.7647 Y-6.5221
X13.8753 Y-6.2707
X14.0064 Y-6.0294
X14.157 Y-5.7999
X14.1801 Y-5.768 F96.
Y-5.754
X14.157 Y-5.7221
X14.0158 Y-5.5082 F120.
X13.8916 Y-5.2839
X13.7851 Y-5.0508
X13.697 Y-4.8101
X13.6277 Y-4.5633
X13.5778 Y-4.3119
X13.5474 Y-4.0573
X13.5368 Y-3.8012
X13.5356 Y-3.625
X13.5353 Y-3.5856 F96.
X13.531 Y-3.5766
X13.507 Y-3.5565
X13.4917
X13.4615 Y-3.5817
X13.2872 Y-3.71 F120.
X13.1007 Y-3.8197
X12.904 Y-3.9097
X12.699 Y-3.9792
X12.4881 Y-4.0274
X12.2733 Y-4.0536
X12.057 Y-4.0578
X11.8414 Y-4.0399
X11.6287 Y-3.9999
X11.4213 Y-3.9384
X11.2212 Y-3.8561
X11.0306 Y-3.7536
X10.8515 Y-3.6322
X10.8203 Y-3.6082 F96.
X10.8056 Y-3.6083
X10.7747 Y-3.6327
X10.5745 Y-3.7766 F120.
X10.3634 Y-3.904
X10.1429 Y-4.0141
X9.9142 Y-4.1063
X9.9068 Y-4.1114
X9.7168 Y-4.3137
X9.5105 Y-4.4994
X9.2894 Y-4.6671
X9.055 Y-4.8158
X8.8089 Y-4.9443
X8.553 Y-5.0517
X8.289 Y-5.1373
X8.0188 Y-5.2006
X7.7442 Y-5.241
X7.4672 Y-5.2582
X7.1897 Y-5.2522
X6.9137 Y-5.223
X6.6411 Y-5.1708
X6.3738 Y-5.096
X6.1138 Y-4.999
X5.8627 Y-4.8806
X5.6225 Y-4.7416
X5.3948 Y-4.583
X5.1811 Y-4.4058
X4.983 Y-4.2114
X4.8019 Y-4.0011
X4.639 Y-3.7763
X4.4955 Y-3.5388
X4.3724 Y-3.29
X4.3567 Y-3.2539 F96.
X4.3474 Y-3.2469
X4.3365 Y-3.2513
X4.3119 Y-3.282
X4.1681 Y-3.4411 F120.
X4.0088 Y-3.5848
X3.8358 Y-3.7116
X3.6508 Y-3.8202
X3.4558 Y-3.9095
X3.2527 Y-3.9785
X3.0436 Y-4.0266
X2.8308 Y-4.0532
X2.6163 Y-4.0581
X2.4025 Y-4.0412
X2.1915 Y-4.0027
X1.9854 Y-3.943
X1.9483 Y-3.9298 F96.
X1.9388 Y-3.9304
X1.9038 Y-3.9486
X1.7032 Y-4.0422 F120.
X1.4964 Y-4.1211
X1.2844 Y-4.185
X1.2463 Y-4.1948 F96.
X1.2374 Y-4.2048
X1.2323 Y-4.2438
X1.1872 Y-4.498 F120.
X1.1224 Y-4.7479
X1.0384 Y-4.992
X.9356 Y-5.2287
X.8147 Y-5.4568
X.6764 Y-5.6748
X.6538 Y-5.707 F96.
X.654 Y-5.721
X.6777 Y-5.7524
X.8272 Y-5.971 F120.
X.9587 Y-6.2008
X1.0714 Y-6.4404
X1.1646 Y-6.6882
X1.2377 Y-6.9426
X1.2903 Y-7.2021
X1.322 Y-7.465
X1.3326 Y-7.7295
X1.322 Y-7.9941
X1.2904 Y-8.2569
X1.2378 Y-8.5164
X1.1647 Y-8.7709
X1.0714 Y-9.0187
X.9587 Y-9.2583
X.8272 Y-9.4881
X.6778 Y-9.7067
X.6541 Y-9.7381 F96.
X.6538 Y-9.7519
X.676 Y-9.7844
X.718 Y-9.8461 F120.
X.7244 Y-9.8518
X.9587 Y-9.9878
X1.1805 Y-10.1433
X1.3881 Y-10.3173
X1.5801 Y-10.5084
X1.7551 Y-10.7152
X1.9117 Y-10.9362
X2.0488 Y-11.1698
X2.1654 Y-11.4143
X2.1806 Y-11.4506 F96.
X2.1942 Y-11.4577
X2.2326 Y-11.449
X2.4406 Y-11.4152 F120.
X2.6509 Y-11.4023
X2.8614 Y-11.4103
X3.07 Y-11.4393
X3.2748 Y-11.4889
X3.4736 Y-11.5587
X3.6644 Y-11.648
X3.8454 Y-11.7558
X4.0148 Y-11.8811
X4.1708 Y-12.0226
X4.312 Y-12.179
X4.3366 Y-12.2098 F96.
X4.3474 Y-12.2142
X4.3567 Y-12.2071
X4.3725 Y-12.171
X4.4874 Y-11.9372 F120.
X4.6205 Y-11.713
X4.7707 Y-11.5001
X4.9372 Y-11.2996
X5.119 Y-11.1128
X5.3148 Y-10.9409
X5.5236 Y-10.7849
X5.5396 Y-10.7785
X5.5568 Y-10.7795
X5.7345 Y-10.8307
X5.9123 Y-10.8818
X5.9422 Y-10.8784
X6.1802 Y-10.7602
X6.4278 Y-10.6634
X6.6829 Y-10.5888
X6.9436 Y-10.5369
X7.2078 Y-10.5083
X7.4736 Y-10.5031
X7.7387 Y-10.5213
X8.0013 Y-10.5628
X8.2591 Y-10.6273
X8.5103 Y-10.7143
X8.7528 Y-10.8231
X8.9848 Y-10.9528
X9.2044 Y-11.1025
X9.41 Y-11.271
X9.5999 Y-11.4569
X9.7728 Y-11.6589
X9.9271 Y-11.8753
X9.9352 Y-11.882
X10.1343 Y-11.9732
X10.3256 Y-12.0798
X10.508 Y-12.201
X10.6803 Y-12.3362
X10.7101 Y-12.3619 F96.
X10.7188 Y-12.3648
X10.727 Y-12.3605
X10.7524 Y-12.3305
X10.8925 Y-12.1852 F120.
X11.0479 Y-12.0565
X11.2167 Y-11.9458
X11.3967 Y-11.8546
X11.5858 Y-11.784
X11.7815 Y-11.7348
X11.9815 Y-11.7078
X12.1832 Y-11.7031
X12.3843 Y-11.7209
X12.5821 Y-11.7609
X12.7742 Y-11.8226
X12.8108 Y-11.8372 F96.
X12.8204 Y-11.8369
X12.8266 Y-11.8296
X12.8382 Y-11.792
X12.9248 Y-11.5542 F120.
X13.0322 Y-11.3249
X13.1593 Y-11.1061
X13.3054 Y-10.8993
X13.4691 Y-10.7062
X13.6492 Y-10.5284
X13.8444 Y-10.3672
X14.053 Y-10.2238
X14.2735 Y-10.0994
X14.2805 Y-10.0929
X14.4022 Y-9.9097
X14.5369 Y-9.7359
X14.5623 Y-9.7058 F96.
Y-9.6904
X14.5369 Y-9.6604
X14.3779 Y-9.4522 F120.
X14.2376 Y-9.2311
X14.1171 Y-8.9986
X14.0172 Y-8.7565
X13.9387 Y-8.5066
X13.8821 Y-8.2509
X13.8481 Y-7.9912
X13.8367 Y-7.7295
X13.8481 Y-7.4679
X13.8822 Y-7.2082
X13.9387 Y-6.9525
X14.0172 Y-6.7026
X14.1171 Y-6.4605
X14.2377 Y-6.228
X14.378 Y-6.0069
X14.537 Y-5.7987
X14.5625 Y-5.7687 F96.
Y-5.7533
X14.537 Y-5.7233
X14.3786 Y-5.5159 F120.
X14.2386 Y-5.2956
X14.1183 Y-5.064
X14.0185 Y-4.8228
X13.9399 Y-4.5739
X13.8832 Y-4.3192
X13.8487 Y-4.0605
X13.8368 Y-3.7997
X13.8345 Y-3.4787
X13.8342 Y-3.4394 F96.
X13.8295 Y-3.43
X13.7982 Y-3.4062
X13.6605 Y-3.2927 F120.
X13.5304 Y-3.1707
X13.5027 Y-3.1427 F96.
X13.4939 Y-3.1391
X13.4854 Y-3.1432
X13.459 Y-3.1724
X13.3099 Y-3.3173 F120.
X13.1452 Y-3.444
X12.967 Y-3.5511
X12.7777 Y-3.637
X12.5798 Y-3.7007
X12.376 Y-3.7414
X12.1688 Y-3.7584
X11.961 Y-3.7515
X11.7554 Y-3.721
X11.5547 Y-3.667
X11.3614 Y-3.5905
X11.1782 Y-3.4923
X11.0074 Y-3.3737
X10.8514 Y-3.2364
X10.8236 Y-3.2085 F96.
X10.8154 Y-3.2049
X10.807 Y-3.2082
X10.7784 Y-3.2353
X10.5936 Y-3.3935 F120.
X10.3956 Y-3.5351
X10.1861 Y-3.6588
X9.9666 Y-3.7638
X9.7388 Y-3.8493
X9.7306 Y-3.8549
X9.5566 Y-4.0495
X9.3663 Y-4.2284
X9.1613 Y-4.3902
X8.9431 Y-4.5336
X8.7133 Y-4.6575
X8.4735 Y-4.7611
X8.2258 Y-4.8435
X7.9718 Y-4.9041
X7.7135 Y-4.9425
X7.4529 Y-4.9584
X7.1918 Y-4.9517
X6.9323 Y-4.9224
X6.6764 Y-4.8707
X6.4259 Y-4.7971
X6.1827 Y-4.702
X5.9486 Y-4.5862
X5.7255 Y-4.4506
X5.5149 Y-4.2961
X5.3185 Y-4.1241
X5.1377 Y-3.9356
X4.974 Y-3.7322
X4.8285 Y-3.5154
X4.7023 Y-3.2868
X4.5964 Y-3.0481
X4.5115 Y-2.8011
X4.4484 Y-2.5477
X4.4408 Y-2.5091 F96.
X4.4292 Y-2.4995
X4.4098
X4.3985 Y-2.5076
X4.386 Y-2.545
X4.3106 Y-2.7277 F120.
X4.2158 Y-2.9012
X4.1027 Y-3.0634
X3.9725 Y-3.2122
X3.827 Y-3.346
X3.6677 Y-3.4631
X3.4966 Y-3.5622
X3.3157 Y-3.642
X3.1273 Y-3.7017
X2.9334 Y-3.7405
X2.7365 Y-3.7579
X2.5388 Y-3.7538
X2.3428 Y-3.7281
X2.1507 Y-3.6813
X1.9649 Y-3.6138
X1.9288 Y-3.5979 F96.
X1.9179 Y-3.5985
X1.8839 Y-3.6183
X1.6757 Y-3.7261 F120.
X1.4591 Y-3.8161
X1.2358 Y-3.8875
X1.0072 Y-3.9398
X.9685 Y-3.9468 F96.
X.9587 Y-3.9577
X.9563 Y-3.997
X.927 Y-4.258 F120.
X.8752 Y-4.5154
X.8011 Y-4.7673
X.7054 Y-5.0118
X.5887 Y-5.247
X.4521 Y-5.4711
X.2964 Y-5.6826
X.2715 Y-5.7131 F96.
X.2717 Y-5.7284
X.2977 Y-5.758
X.4643 Y-5.9687 F120.
X.6114 Y-6.1934
X.7379 Y-6.4303
X.8429 Y-6.6775
X.9254 Y-6.9331
X.9848 Y-7.1951
X1.0206 Y-7.4612
X1.0326 Y-7.7295
X1.0206 Y-7.9978
X.9848 Y-8.264
X.9254 Y-8.5259
X.8429 Y-8.7815
X.738 Y-9.0288
X.6115 Y-9.2657
X.4644 Y-9.4904
X.2978 Y-9.7011
X.2718 Y-9.7307 F96.
X.2716 Y-9.7461
X.2965 Y-9.7765
X.4073 Y-9.923 F120.
X.5091 Y-10.076
X.5163 Y-10.0825
X.7411 Y-10.2057
X.9541 Y-10.3484
X1.1534 Y-10.5096
X1.3375 Y-10.688
X1.5049 Y-10.8821
X1.6542 Y-11.0905
X1.7843 Y-11.3114
X1.8941 Y-11.543
X1.9828 Y-11.7835
X1.9944 Y-11.8211 F96.
X2.0006 Y-11.8283
X2.0101 Y-11.8287
X2.0469 Y-11.8146
X2.2432 Y-11.7544 F120.
X2.4451 Y-11.7168
X2.6499 Y-11.7023
X2.8551 Y-11.711
X3.058 Y-11.743
X3.2559 Y-11.7976
X3.4464 Y-11.8743
X3.627 Y-11.9721
X3.7954 Y-12.0897
X3.9494 Y-12.2255
X4.087 Y-12.378
X4.2065 Y-12.545
X4.3064 Y-12.7244
X4.3852 Y-12.9141
X4.3979 Y-12.9513 F96.
X4.4091 Y-12.9595
X4.4296
X4.4412 Y-12.9499
X4.4488 Y-12.9113
X4.51 Y-12.6653 F120.
X4.5916 Y-12.4253
X4.6931 Y-12.193
X4.8138 Y-11.9701
X4.9528 Y-11.7581
X5.1091 Y-11.5586
X5.2817 Y-11.3729
X5.4692 Y-11.2023
X5.6704 Y-11.0482
X5.6866 Y-11.0416
X5.7039 Y-11.0426
X5.8807 Y-11.0935
X6.0575 Y-11.1443
X6.0874 Y-11.141
X6.3068 Y-11.0322
X6.5351 Y-10.9438
X6.7704 Y-10.8763
X7.0109 Y-10.8302
X7.2545 Y-10.8061
X7.4993 Y-10.804
X7.7434 Y-10.824
X7.9846 Y-10.8659
X8.221 Y-10.9295
X8.4508 Y-11.014
X8.672 Y-11.119
X8.8828 Y-11.2435
X9.0816 Y-11.3865
X9.2666 Y-11.5468
X9.4364 Y-11.7232
X9.5897 Y-11.9141
X9.725 Y-12.1181
X9.7341 Y-12.1256
X9.958 Y-12.2207
X10.1716 Y-12.3372
X10.3727 Y-12.474
X10.5595 Y-12.6299
X10.7303 Y-12.8032
X10.7562 Y-12.8328 F96.
X10.7666 Y-12.8368
X10.7757 Y-12.8304
X10.794 Y-12.7956
X10.8895 Y-12.6416 F120.
X11.0027 Y-12.5002
X11.132 Y-12.3733
X11.2756 Y-12.2628
X11.4314 Y-12.1703
X11.5971 Y-12.097
X11.7704 Y-12.0441
X11.9487 Y-12.0123
X12.1296 Y-12.0021
X12.3104 Y-12.0136
X12.4885 Y-12.0466
X12.6614 Y-12.1007
X12.8266 Y-12.1751
X12.9817 Y-12.2687
X13.0139 Y-12.2914 F96.
X13.0254 Y-12.2928
X13.0325 Y-12.2836
X13.0385 Y-12.2447
X13.0845 Y-12.0224 F120.
X13.1499 Y-11.8051
X13.2344 Y-11.5944
X13.3371 Y-11.392
X13.4574 Y-11.1995
X13.5942 Y-11.0184
X13.7466 Y-10.8502
X13.9132 Y-10.696
X14.0928 Y-10.5573
X14.284 Y-10.4349
X14.4852 Y-10.33
X14.4931 Y-10.3227
X14.6259 Y-10.1129
X14.7772 Y-9.9162
X14.946 Y-9.7341
X14.9742 Y-9.7066 F96.
X14.9779 Y-9.6981
X14.9742 Y-9.6896
X14.946 Y-9.6622
X14.7742 Y-9.4764 F120.
X14.6204 Y-9.2755
X14.4861 Y-9.0612
X14.3723 Y-8.8352
X14.28 Y-8.5997
X14.2102 Y-8.3565
X14.1632 Y-8.1079
X14.1396 Y-7.856
X14.1397 Y-7.603
X14.1632 Y-7.3511
X14.2102 Y-7.1026
X14.2801 Y-6.8594
X14.3724 Y-6.6239
X14.4862 Y-6.3979
X14.6206 Y-6.1836
X14.7743 Y-5.9827
X14.9461 Y-5.797
X14.9744 Y-5.7695 F96.
X14.978 Y-5.761
X14.9744 Y-5.7525
X14.9461 Y-5.7251
X14.7838 Y-5.5506 F120.
X14.6375 Y-5.3625
X14.5082 Y-5.1623
X14.397 Y-4.9516
X14.3047 Y-4.7319
X14.232 Y-4.505
X14.1796 Y-4.2725
X14.1478 Y-4.0363
X14.1368 Y-3.7983
X14.1334 Y-3.3225
X14.1331 Y-3.2831 F96.
X14.1278 Y-3.2734
X14.0952 Y-3.2514
X13.9304 Y-3.1282 F120.
X13.7764 Y-2.9918
X13.6341 Y-2.8432
X13.5047 Y-2.6833
X13.4814 Y-2.6516 F96.
X13.471 Y-2.6467
X13.4614 Y-2.653
X13.4426 Y-2.6875
X13.3441 Y-2.8404 F120.
X13.228 Y-2.9804
X13.096 Y-3.1054
X12.9499 Y-3.2136
X12.7919 Y-3.3036
X12.6242 Y-3.3739
X12.4492 Y-3.4236
X12.2696 Y-3.4519
X12.0879 Y-3.4585
X11.9067 Y-3.4432
X11.7287 Y-3.4062
X11.5564 Y-3.3482
X11.3922 Y-3.2698
X11.2387 Y-3.1724
X11.098 Y-3.0572
X10.9721 Y-2.926
X10.8629 Y-2.7806
X10.8416 Y-2.7475 F96.
X10.8323 Y-2.7419
X10.8224 Y-2.7464
X10.7977 Y-2.777
X10.6546 Y-2.9368 F120.
X10.4984 Y-3.0836
X10.33 Y-3.2165
X10.1509 Y-3.3343
X9.9622 Y-3.4363
X9.7655 Y-3.5216
X9.5622 Y-3.5897
X9.553 Y-3.5959
X9.3935 Y-3.7855
X9.2174 Y-3.9598
X9.0261 Y-4.1173
X8.8212 Y-4.2566
X8.6045 Y-4.3767
X8.3777 Y-4.4765
X8.1427 Y-4.5552
X7.9016 Y-4.6121
X7.6563 Y-4.6468
X7.4088 Y-4.6589
X7.1612 Y-4.6484
X6.9157 Y-4.6153
X6.6741 Y-4.56
X6.4387 Y-4.4828
X6.2112 Y-4.3845
X5.9937 Y-4.2659
X5.7879 Y-4.1278
X5.5956 Y-3.9716
X5.4183 Y-3.7985
X5.2576 Y-3.6099
X5.1148 Y-3.4075
X4.991 Y-3.1928
X4.8873 Y-2.9678
X4.8047 Y-2.7342
X4.7436 Y-2.494
X4.7048 Y-2.2493
X4.7007 Y-2.2102 F96.
X4.6969 Y-2.2026
X4.6889 Y-2.1995
X4.6495
X4.2156 F120.
X4.1762 F96.
X4.1646 Y-2.2093
X4.1572 Y-2.2479
X4.1082 Y-2.43 F120.
X4.0369 Y-2.6046
X3.9445 Y-2.769
X3.8323 Y-2.9205
X3.7021 Y-3.057
X3.5559 Y-3.1761
X3.396 Y-3.2762
X3.225 Y-3.3555
X3.0454 Y-3.413
X2.86 Y-3.4476
X2.6717 Y-3.4589
X2.4836 Y-3.4467
X2.2984 Y-3.4111
X2.119 Y-3.3528
X1.9483 Y-3.2726
X1.9141 Y-3.2532 F96.
X1.9015 Y-3.2537
X1.8688 Y-3.2756
X1.6924 Y-3.3817 F120.
X1.5078 Y-3.4729
X1.3163 Y-3.5485
X1.1192 Y-3.608
X.9179 Y-3.651
X.7137 Y-3.6772
X.6745 Y-3.6803 F96.
X.6667 Y-3.6841
X.6635 Y-3.6921
X.6634 Y-3.7315
X.6632 Y-3.7954 F120.
X.6529 Y-4.0285
X.6226 Y-4.2599
X.5725 Y-4.4879
X.5031 Y-4.7106
X.4147 Y-4.9266
X.3081 Y-5.1342
X.184 Y-5.3319
X.0434 Y-5.5181
X-.1127 Y-5.6916
X-.1405 Y-5.7195 F96.
X-.144 Y-5.7281
X-.1402 Y-5.7366
X-.1114 Y-5.7635
X.0579 Y-5.9395 F120.
X.2107 Y-6.1301
X.3458 Y-6.3337
X.462 Y-6.5486
X.5583 Y-6.7731
X.6341 Y-7.0053
X.6887 Y-7.2434
X.7216 Y-7.4855
X.7326 Y-7.7295
X.7216 Y-7.9736
X.6887 Y-8.2156
X.6341 Y-8.4538
X.5584 Y-8.686
X.462 Y-8.9105
X.3459 Y-9.1254
X.2108 Y-9.329
X.058 Y-9.5196
X-.1113 Y-9.6957
X-.1401 Y-9.7226 F96.
X-.1439 Y-9.731
X-.1404 Y-9.7396
X-.1126 Y-9.7675
X.0394 Y-9.9361 F120.
X.1768 Y-10.1167
X.2985 Y-10.3082
X.3065 Y-10.3154
X.5108 Y-10.4185
X.705 Y-10.5393
X.8877 Y-10.677
X1.0573 Y-10.8304
X1.2126 Y-10.9984
X1.3523 Y-11.1795
X1.4753 Y-11.3724
X1.5806 Y-11.5755
X1.6673 Y-11.7872
X1.7349 Y-12.0057
X1.7826 Y-12.2294
X1.7888 Y-12.2683 F96.
X1.7958 Y-12.2774
X1.8073 Y-12.2762
X1.8398 Y-12.254
X1.9996 Y-12.1616 F120.
X2.1694 Y-12.0893
X2.3468 Y-12.0382
X2.5291 Y-12.0092
X2.7136 Y-12.0026
X2.8975 Y-12.0185
X3.0781 Y-12.0567
X3.2527 Y-12.1166
X3.4187 Y-12.1974
X3.5736 Y-12.2978
X3.7151 Y-12.4163
X3.8412 Y-12.5512
X3.9498 Y-12.7004
X4.0395 Y-12.8617
X4.1088 Y-13.0328
X4.1568 Y-13.2111
X4.1642 Y-13.2497 F96.
X4.1758 Y-13.2595
X4.2152
X4.6498 F120.
X4.6891 F96.
X4.6971 Y-13.2564
X4.7009 Y-13.2488
X4.705 Y-13.2097
X4.7448 Y-12.9612 F120.
X4.8075 Y-12.7175
X4.8925 Y-12.4807
X4.9991 Y-12.2528
X5.1263 Y-12.0357
X5.2732 Y-11.8314
X5.4383 Y-11.6415
X5.6203 Y-11.4678
X5.8176 Y-11.3116
X5.8338 Y-11.3048
X5.8514 Y-11.3058
X6.027 Y-11.3563
X6.2027 Y-11.4069
X6.2326 Y-11.4035
X6.4464 Y-11.2987
X6.6695 Y-11.2154
X6.8997 Y-11.1546
X7.1348 Y-11.1168
X7.3725 Y-11.1023
X7.6104 Y-11.1114
X7.8463 Y-11.1438
X8.0779 Y-11.1994
X8.3028 Y-11.2775
X8.519 Y-11.3775
X8.7242 Y-11.4982
X8.9165 Y-11.6386
X9.0941 Y-11.7973
X9.2551 Y-11.9727
X9.3981 Y-12.1631
X9.5216 Y-12.3667
X9.5284 Y-12.3724
X9.739 Y-12.4504
X9.9405 Y-12.5496
X10.1307 Y-12.6689
X10.3077 Y-12.8071
X10.4696 Y-12.9627
X10.6146 Y-13.1341
X10.7414 Y-13.3195
X10.8484 Y-13.5169
X10.8651 Y-13.5526 F96.
X10.8758 Y-13.5595
X10.9009
X10.9094 Y-13.5559
X10.9128 Y-13.5473
X10.9123 Y-13.508
X10.9244 Y-13.3435 F120.
X10.9586 Y-13.1822
X11.0145 Y-13.0271
X11.0908 Y-12.881
X11.1863 Y-12.7465
X11.2992 Y-12.6263
X11.4274 Y-12.5226
X11.5684 Y-12.4371
X11.7197 Y-12.3716
X11.8785 Y-12.3273
X12.0419 Y-12.3049
X12.2068
X12.3702 Y-12.3273
X12.529 Y-12.3716
X12.6803 Y-12.4371
X12.8213 Y-12.5226
X12.9495 Y-12.6263
X13.0623 Y-12.7465
X13.1578 Y-12.881
X13.2342 Y-13.0271
X13.2901 Y-13.1822
X13.3243 Y-13.3435
X13.3364 Y-13.508
X13.3359 Y-13.5473 F96.
X13.3393 Y-13.5559
X13.3477 Y-13.5595
X13.3871
X13.4386 F120.
X13.4779 F96.
X13.4878 Y-13.5542
X13.4888 Y-13.543
X13.4736 Y-13.5067
X13.4002 Y-13.2982 F120.
X13.3475 Y-13.0836
X13.3159 Y-12.8648
X13.3059 Y-12.644
X13.3175 Y-12.4233
X13.3506 Y-12.2047
X13.4048 Y-11.9904
X13.4797 Y-11.7825
X13.5745 Y-11.5828
X13.6884 Y-11.3934
X13.8202 Y-11.2159
X13.9687 Y-11.0522
X14.1325 Y-10.9038
X14.31 Y-10.772
X14.4994 Y-10.6582
X14.6991 Y-10.5635
X14.708 Y-10.5554
X14.8172 Y-10.3663
X14.9431 Y-10.188
X15.0846 Y-10.0218
X15.2405 Y-9.869
X15.4096 Y-9.7309
X15.4414 Y-9.7077 F96.
X15.4463 Y-9.6981
X15.4414 Y-9.6885
X15.4096 Y-9.6653
X15.227 Y-9.5151 F120.
X15.06 Y-9.3477
X14.9102 Y-9.1649
X14.779 Y-8.9682
X14.6677 Y-8.7596
X14.5773 Y-8.5412
X14.5088 Y-8.3149
X14.4627 Y-8.083
X14.4396 Y-7.8477
Y-7.6113
X14.4628 Y-7.376
X14.5088 Y-7.1441
X14.5774 Y-6.9179
X14.6678 Y-6.6994
X14.7791 Y-6.4909
X14.9103 Y-6.2942
X15.0602 Y-6.1113
X15.2272 Y-5.944
X15.4098 Y-5.7938
X15.4416 Y-5.7706 F96.
X15.4465 Y-5.761
X15.4416 Y-5.7514
X15.4098 Y-5.7282
X15.2363 Y-5.5862 F120.
X15.0767 Y-5.4288
X14.9325 Y-5.2572
X14.8048 Y-5.073
X14.6947 Y-4.8777
X14.6033 Y-4.673
X14.5312 Y-4.4608
X14.4792 Y-4.2427
X14.4476 Y-4.0208
X14.4368 Y-3.7969
X14.4322 Y-3.1538
X14.4319 Y-3.1145 F96.
X14.4259 Y-3.1043
X14.3918 Y-3.0846
X14.2113 Y-2.9661 F120.
X14.0434 Y-2.8303
X13.8896 Y-2.6787
X13.7516 Y-2.5126
X13.6306 Y-2.3337
X13.5279 Y-2.1438
X13.4444 Y-1.9446
X13.4313 Y-1.9075 F96.
X13.4201 Y-1.8995
X13.3477
X13.3392 Y-1.9031
X13.3359 Y-1.9117
X13.3364 Y-1.951
X13.3244 Y-2.1171 F120.
X13.2897 Y-2.28
X13.2331 Y-2.4365
X13.1555 Y-2.5839
X13.0584 Y-2.7192
X12.9438 Y-2.8399
X12.8136 Y-2.9438
X12.6705 Y-3.0289
X12.517 Y-3.0935
X12.3561 Y-3.1365
X12.1909 Y-3.1571
X12.0244 Y-3.1548
X11.8598 Y-3.1297
X11.7002 Y-3.0823
X11.5485 Y-3.0134
X11.4078 Y-2.9244
X11.2806 Y-2.817
X11.1693 Y-2.6931
X11.076 Y-2.5552
X11.0025 Y-2.4057
X10.9502 Y-2.2477
X10.9201 Y-2.0839
X10.9162 Y-2.0447 F96.
X10.9063 Y-2.034
X10.8936 Y-2.0411
X10.8781 Y-2.0773
X10.7776 Y-2.278 F120.
X10.6571 Y-2.4673
X10.5178 Y-2.6432
X10.3612 Y-2.804
X10.1889 Y-2.9478
X10.0028 Y-3.0732
X9.8049 Y-3.179
X9.5971 Y-3.2638
X9.3818 Y-3.327
X9.3748 Y-3.3317
X9.231 Y-3.5169
X9.07 Y-3.6873
X8.8931 Y-3.8412
X8.7021 Y-3.9772
X8.4988 Y-4.0941
X8.2851 Y-4.1906
X8.0631 Y-4.266
X7.8348 Y-4.3194
X7.6024 Y-4.3504
X7.368 Y-4.3587
X7.134 Y-4.3442
X6.9025 Y-4.3071
X6.6757 Y-4.2476
X6.4557 Y-4.1664
X6.2447 Y-4.0643
X6.0445 Y-3.9421
X5.8572 Y-3.8011
X5.6845 Y-3.6425
X5.5279 Y-3.4679
X5.3891 Y-3.279
X5.2693 Y-3.0775
X5.1696 Y-2.8653
X5.0909 Y-2.6444
X5.0341 Y-2.4169
X4.9996 Y-2.1849
X4.9879 Y-1.9508
X4.9881 Y-1.9114 F96.
X4.9847 Y-1.903
X4.9763 Y-1.8995
X4.9369
X3.9382 F120.
X3.8988 F96.
X3.8903 Y-1.9031
X3.887 Y-1.9117
X3.8875 Y-1.951
X3.8753 Y-2.1186 F120.
X3.84 Y-2.283
X3.7823 Y-2.4408
X3.7033 Y-2.5892
X3.6046 Y-2.7252
X3.4879 Y-2.8463
X3.3557 Y-2.95
X3.2104 Y-3.0345
X3.0548 Y-3.098
X2.8919 Y-3.1394
X2.7248 Y-3.1579
X2.5568 Y-3.1531
X2.3911 Y-3.1251
X2.2308 Y-3.0744
X2.0791 Y-3.0021
X1.9389 Y-2.9094
X1.908 Y-2.885 F96.
X1.893
X1.8624 Y-2.9099
X1.692 Y-3.0328 F120.
X1.5106 Y-3.1387
X1.3198 Y-3.2268
X1.1214 Y-3.2962
X.9173 Y-3.3462
X.7094 Y-3.3764
X.4995 Y-3.3865
X.4155
X.3761 F96.
X.3678 Y-3.3899
X.3643 Y-3.3983
X.3642 Y-3.4376
X.3632 Y-3.7948 F120.
X.3529 Y-4.0147
X.3227 Y-4.2328
X.2726 Y-4.4472
X.2033 Y-4.6562
X.1151 Y-4.8579
X.009 Y-5.0508
X-.1143 Y-5.2332
X-.2538 Y-5.4036
X-.4082 Y-5.5606
X-.5762 Y-5.7028
X-.6076 Y-5.7266 F96.
X-.6123 Y-5.736
X-.6073 Y-5.7459
X-.5751 Y-5.7686
X-.3955 Y-5.9105 F120.
X-.2302 Y-6.0688
X-.0807 Y-6.2421
X.0518 Y-6.4288
X.1659 Y-6.6272
X.2608 Y-6.8355
X.3354 Y-7.0519
X.3893 Y-7.2744
X.4217 Y-7.5009
X.4326 Y-7.7296
X.4218 Y-7.9582
X.3893 Y-8.1848
X.3355 Y-8.4073
X.2608 Y-8.6236
X.166 Y-8.832
X.0518 Y-9.0304
X-.0806 Y-9.217
X-.2301 Y-9.3903
X-.3954 Y-9.5487
X-.575 Y-9.6906
X-.6072 Y-9.7133 F96.
X-.6123 Y-9.7228
X-.6075 Y-9.7325
X-.5762 Y-9.7562
X-.4177 Y-9.8897 F120.
X-.2712 Y-10.0362
X-.1378 Y-10.1948
X-.0186 Y-10.3642
X.0857 Y-10.5432
X.0947 Y-10.5513
X.2975 Y-10.6442
X.4902 Y-10.7566
X.6708 Y-10.8873
X.8378 Y-11.0353
X.9893 Y-11.1989
X1.124 Y-11.3767
X1.2405 Y-11.5669
X1.3377 Y-11.7677
X1.4146 Y-11.977
X1.4706 Y-12.1929
X1.5051 Y-12.4133
X1.5176 Y-12.6359
X1.5082 Y-12.8588
X1.4769 Y-13.0796
X1.424 Y-13.2963
X1.35 Y-13.5067
X1.3348 Y-13.543 F96.
X1.3358 Y-13.5542
X1.3457 Y-13.5595
X1.385
X1.4127 F120.
X1.4521 F96.
X1.4605 Y-13.5559
X1.4639 Y-13.5473
X1.4634 Y-13.508
X1.4755 Y-13.3435 F120.
X1.5097 Y-13.1822
X1.5656 Y-13.0271
X1.642 Y-12.881
X1.7374 Y-12.7465
X1.8503 Y-12.6263
X1.9785 Y-12.5226
X2.1195 Y-12.4371
X2.2708 Y-12.3716
X2.4296 Y-12.3273
X2.593 Y-12.3049
X2.7579
X2.9213 Y-12.3273
X3.0801 Y-12.3716
X3.2314 Y-12.4371
X3.3724 Y-12.5226
X3.5006 Y-12.6263
X3.6134 Y-12.7465
X3.709 Y-12.881
X3.7853 Y-13.0271
X3.8412 Y-13.1822
X3.8754 Y-13.3435
X3.8875 Y-13.508
X3.887 Y-13.5473 F96.
X3.8904 Y-13.5559
X3.8988 Y-13.5595
X3.9382
X4.9369 F120.
X4.9763 F96.
X4.9847 Y-13.556
X4.9881 Y-13.5475
X4.9879 Y-13.5081
X4.9989 Y-13.2839 F120.
X5.0307 Y-13.0616
X5.0831 Y-12.8433
X5.1555 Y-12.6307
X5.2474 Y-12.4259
X5.3579 Y-12.2304
X5.4861 Y-12.0461
X5.631 Y-11.8745
X5.7911 Y-11.7171
X5.9652 Y-11.5753
X5.9816 Y-11.5682
X5.9994 Y-11.5691
X6.1737 Y-11.6192
X6.3479 Y-11.6694
X6.3778 Y-11.666
X6.5719 Y-11.5713
X6.7746 Y-11.4969
X6.9839 Y-11.4436
X7.1976 Y-11.4119
X7.4134 Y-11.4022
X7.629 Y-11.4146
X7.8422 Y-11.449
X8.0509 Y-11.505
X8.2527 Y-11.582
X8.4455 Y-11.6791
X8.6275 Y-11.7955
X8.7966 Y-11.9299
X8.9511 Y-12.0808
X9.0894 Y-12.2467
X9.21 Y-12.4259
X9.3117 Y-12.6165
X9.3243 Y-12.6267
X9.5211 Y-12.6865
X9.7102 Y-12.7674
X9.8894 Y-12.8683
X10.0565 Y-12.9882
X10.2097 Y-13.1255
X10.3469 Y-13.2787
X10.4667 Y-13.4459
X10.5675 Y-13.6252
X10.6483 Y-13.8143
X10.6614 Y-13.8515 F96.
X10.6725 Y-13.8595
X10.7119
X11.2234 F120.
X11.2628 F96.
X11.2725 Y-13.8544
X11.2738 Y-13.8434
X11.2604 Y-13.8064
X11.2251 Y-13.6668 F120.
X11.2123 Y-13.5233
X11.2223 Y-13.3796
X11.2547 Y-13.2393
X11.3088 Y-13.1058
X11.3833 Y-12.9825
X11.4762 Y-12.8725
X11.5853 Y-12.7784
X11.7079 Y-12.7028
X11.8408 Y-12.6473
X11.9808 Y-12.6135
X12.1243 Y-12.6021
X12.2679 Y-12.6135
X12.4079 Y-12.6473
X12.5409 Y-12.7028
X12.6634 Y-12.7784
X12.7725 Y-12.8725
X12.8654 Y-12.9825
X12.9399 Y-13.1058
X12.994 Y-13.2393
X13.0264 Y-13.3796
X13.0364 Y-13.5233
X13.0235 Y-13.6668
X12.9883 Y-13.8064
X12.9749 Y-13.8434 F96.
X12.9762 Y-13.8544
X12.9859 Y-13.8595
X13.0253
X13.9581 F120.
X13.9975 F96.
X14.0081 Y-13.8529
X14.0069 Y-13.8405
X13.9833 Y-13.809
X13.8663 Y-13.6288 F120.
X13.7697 Y-13.4368
X13.6947 Y-13.2355
X13.6421 Y-13.0272
X13.6126 Y-12.8144
X13.6066 Y-12.5996
X13.6241 Y-12.3855
X13.6649 Y-12.1745
X13.7285 Y-11.9693
X13.8142 Y-11.7723
X13.9209 Y-11.5858
X14.0473 Y-11.4121
X14.192 Y-11.2533
X14.3532 Y-11.1112
X14.529 Y-10.9876
X14.7172 Y-10.884
X14.9156 Y-10.8016
X14.9265 Y-10.7916
X15.0296 Y-10.5936
X15.153 Y-10.4076
X15.2953 Y-10.2357
X15.455 Y-10.0797
X15.6302 Y-9.9415
X15.8191 Y-9.8225
X16.0194 Y-9.7242
X16.0557 Y-9.709 F96.
X16.0631 Y-9.6981
X16.0557 Y-9.6871
X16.0194 Y-9.672
X15.8183 Y-9.5732 F120.
X15.6288 Y-9.4537
X15.4531 Y-9.3148
X15.293 Y-9.1581
X15.1505 Y-8.9852
X15.027 Y-8.7983
X14.9241 Y-8.5993
X14.8428 Y-8.3906
X14.7841 Y-8.1744
X14.7486 Y-7.9532
X14.7367 Y-7.7294
X14.7486 Y-7.5057
X14.7841 Y-7.2845
X14.8429 Y-7.0683
X14.9242 Y-6.8596
X15.0272 Y-6.6607
X15.1507 Y-6.4737
X15.2933 Y-6.3009
X15.4534 Y-6.1442
X15.6291 Y-6.0053
X15.8186 Y-5.8858
X16.0197 Y-5.7871
X16.0561 Y-5.772 F96.
X16.0635 Y-5.761
X16.0561 Y-5.7501
X16.0197 Y-5.735
X15.8189 Y-5.6364 F120.
X15.6296 Y-5.517
X15.454 Y-5.3784
X15.294 Y-5.2219
X15.1515 Y-5.0494
X15.0281 Y-4.8628
X14.9251 Y-4.6641
X14.8436 Y-4.4557
X14.7847 Y-4.2398
X14.749 Y-4.019
X14.7368 Y-3.7955
X14.7309 Y-2.9692
X14.7306 Y-2.9299 F96.
X14.7237 Y-2.9192
X14.688 Y-2.9026
X14.5047 Y-2.8023 F120.
X14.3336 Y-2.6824
X14.1768 Y-2.5443
X14.0363 Y-2.3898
X13.9137 Y-2.2206
X13.8105 Y-2.0389
X13.7281 Y-1.847
X13.6674 Y-1.6471
X13.6584 Y-1.6087 F96.
X13.6469 Y-1.5995
X13.6075
X13.0245 F120.
X12.9851 F96.
X12.9754 Y-1.6046
X12.9741 Y-1.6156
X12.9876 Y-1.6526
X13.0232 Y-1.7923 F120.
X13.0363 Y-1.9359
X13.0267 Y-2.0798
X12.9944 Y-2.2204
X12.9404 Y-2.3541
X12.866 Y-2.4776
X12.7731 Y-2.5879
X12.664 Y-2.6821
X12.5413 Y-2.758
X12.4083 Y-2.8136
X12.2681 Y-2.8475
X12.1243 Y-2.8589
X11.9806 Y-2.8475
X11.8404 Y-2.8136
X11.7074 Y-2.758
X11.5847 Y-2.6821
X11.4756 Y-2.5879
X11.3826 Y-2.4776
X11.3083 Y-2.3541
X11.2543 Y-2.2204
X11.222 Y-2.0798
X11.2124 Y-1.9359
X11.2255 Y-1.7923
X11.2611 Y-1.6526
X11.2746 Y-1.6156 F96.
X11.2733 Y-1.6046
X11.2636 Y-1.5995
X11.2242
X10.768 F120.
X10.7286 F96.
X10.7171 Y-1.6087
X10.7081 Y-1.6471
X10.6511 Y-1.837 F120.
X10.5744 Y-2.0198
X10.4789 Y-2.1936
X10.3658 Y-2.3563
X10.2362 Y-2.5064
X10.0916 Y-2.642
X9.9335 Y-2.7617
X9.7637 Y-2.8641
X9.5842 Y-2.9482
X9.3968 Y-3.0129
X9.2037 Y-3.0577
X9.1909 Y-3.0662
X9.066 Y-3.245
X8.9232 Y-3.4099
X8.7642 Y-3.5591
X8.5907 Y-3.6913
X8.4044 Y-3.8047
X8.2075 Y-3.8984
X8.0019 Y-3.9713
X7.7899 Y-4.0226
X7.5738 Y-4.0517
X7.3558 Y-4.0584
X7.1383 Y-4.0426
X6.9235 Y-4.0045
X6.7139 Y-3.9444
X6.5115 Y-3.863
X6.3187 Y-3.7612
X6.1373 Y-3.64
X5.9695 Y-3.5007
X5.8168 Y-3.3449
X5.6811 Y-3.1742
X5.5637 Y-2.9904
X5.4659 Y-2.7955
X5.3887 Y-2.5915
X5.3329 Y-2.3807
X5.2992 Y-2.1652
X5.2879 Y-1.9474
X5.2916 Y-1.8213
X5.3028 Y-1.6956
X5.2916 Y-1.6469
X5.2828 Y-1.6085 F96.
X5.2713 Y-1.5995
X5.232
X3.5756 F120.
X3.5362 F96.
X3.5265 Y-1.6046
X3.5252 Y-1.6156
X3.5387 Y-1.6526
X3.5741 Y-1.7913 F120.
X3.5874 Y-1.9338
X3.5782 Y-2.0766
X3.5468 Y-2.2163
X3.4939 Y-2.3493
X3.4209 Y-2.4724
X3.3295 Y-2.5825
X3.222 Y-2.677
X3.101 Y-2.7535
X2.9696 Y-2.8102
X2.8309 Y-2.8456
X2.6883 Y-2.8588
X2.5455 Y-2.8496
X2.4059 Y-2.8182
X2.2729 Y-2.7652
X2.1498 Y-2.6922
X2.0397 Y-2.6008
X1.9452 Y-2.4933
X1.9223 Y-2.4612 F96.
X1.9133 Y-2.4561
X1.9037 Y-2.46
X1.8771 Y-2.489
X1.7382 Y-2.623 F120.
X1.5864 Y-2.742
X1.4232 Y-2.845
X1.2503 Y-2.9307
X1.0696 Y-2.9983
X.8829 Y-3.0471
X.6922 Y-3.0766
X.4995 Y-3.0865
X.1164
X.077 F96.
X.0687 Y-3.0899
X.0652 Y-3.0983
X.0651 Y-3.1376
X.0632 Y-3.7942 F120.
X.0525 Y-4.0045
X.021 Y-4.2127
X-.0311 Y-4.4167
X-.1033 Y-4.6145
X-.1948 Y-4.8041
X-.3048 Y-4.9837
X-.432 Y-5.1514
X-.5754 Y-5.3056
X-.7334 Y-5.4448
X-.9044 Y-5.5676
X-.9117 Y-5.5776
X-.9128 Y-5.8605
X-.913 Y-5.8998 F96.
X-.9072 Y-5.91
X-.8734 Y-5.9303
X-.6958 Y-6.0524 F120.
X-.5316 Y-6.192
X-.3824 Y-6.3475
X-.2498 Y-6.5175
X-.1353 Y-6.7001
X-.04 Y-6.8934
X.0352 Y-7.0954
X.0893 Y-7.3041
X.1219 Y-7.5171
X.1326 Y-7.7324
X.1213 Y-7.9477
X.0882 Y-8.1607
X.0335 Y-8.3691
X-.0422 Y-8.571
X-.1381 Y-8.764
X-.2531 Y-8.9463
X-.3861 Y-9.1159
X-.5357 Y-9.2711
X-.7003 Y-9.4102
X-.8782 Y-9.5319
X-1.0677 Y-9.6347
X-1.0745 Y-9.6414
X-1.1119 Y-9.7166
X-1.1294 Y-9.7519 F96.
X-1.13 Y-9.7609
X-1.124 Y-9.7677
X-1.0887 Y-9.7853
X-.9142 Y-9.8852 F120.
X-.7499 Y-10.0012
X-.5974 Y-10.1323
X-.458 Y-10.2773
X-.3331 Y-10.4349
X-.2237 Y-10.6036
X-.1309 Y-10.782
X-.1198 Y-10.792
X.0814 Y-10.8722
X.2726 Y-10.9741
X.4513 Y-11.0964
X.6155 Y-11.2376
X.7631 Y-11.3961
X.8923 Y-11.5699
X1.0016 Y-11.7569
X1.0896 Y-11.9548
X1.1553 Y-12.1611
X1.1978 Y-12.3735
X1.2167 Y-12.5893
X1.2117 Y-12.8058
X1.1828 Y-13.0204
X1.1304 Y-13.2306
X1.0553 Y-13.4337
X.9581 Y-13.6273
X.8403 Y-13.809
X.8167 Y-13.8405 F96.
X.8155 Y-13.8529
X.8261 Y-13.8595
X.8655
X1.7745 F120.
X1.8139 F96.
X1.8236 Y-13.8544
X1.8249 Y-13.8434
X1.8115 Y-13.8064
X1.7763 Y-13.6668 F120.
X1.7634 Y-13.5233
X1.7734 Y-13.3796
X1.8058 Y-13.2393
X1.8599 Y-13.1058
X1.9344 Y-12.9825
X2.0273 Y-12.8725
X2.1364 Y-12.7784
X2.259 Y-12.7028
X2.3919 Y-12.6473
X2.5319 Y-12.6135
X2.6755 Y-12.6021
X2.819 Y-12.6135
X2.959 Y-12.6473
X3.092 Y-12.7028
X3.2145 Y-12.7784
X3.3236 Y-12.8725
X3.4165 Y-12.9825
X3.491 Y-13.1058
X3.5451 Y-13.2393
X3.5775 Y-13.3796
X3.5875 Y-13.5233
X3.5746 Y-13.6668
X3.5394 Y-13.8064
X3.526 Y-13.8434 F96.
X3.5273 Y-13.8544
X3.537 Y-13.8595
X3.5764
X5.263 F120.
X5.3024 F96.
X5.3114 Y-13.8553
X5.3141 Y-13.8458
X5.3082 Y-13.8069
X5.289 Y-13.585 F120.
X5.2933 Y-13.3624
X5.321 Y-13.1414
X5.3718 Y-12.9246
X5.4452 Y-12.7144
X5.5403 Y-12.513
X5.656 Y-12.3228
X5.7912 Y-12.1458
X5.9442 Y-11.984
X6.1134 Y-11.8392
X6.13 Y-11.8318
X6.1482 Y-11.8326
X6.3206 Y-11.8822
X6.493 Y-11.9319
X6.5229 Y-11.9285
X6.7077 Y-11.8396
X6.9012 Y-11.7721
X7.1012 Y-11.7269
X7.305 Y-11.7046
X7.51 Y-11.7055
X7.7136 Y-11.7295
X7.9132 Y-11.7763
X8.1062 Y-11.8454
X8.2902 Y-11.9359
X8.4627 Y-12.0465
X8.6217 Y-12.176
X8.765 Y-12.3225
X8.8909 Y-12.4843
X8.9977 Y-12.6594
X9.084 Y-12.8453
X9.0982 Y-12.882 F96.
X9.1075 Y-12.8896
X9.1463 Y-12.8959
X9.3282 Y-12.9386 F120.
X9.5038 Y-13.0024
X9.6707 Y-13.0864
X9.8265 Y-13.1894
X9.9692 Y-13.31
X10.0967 Y-13.4466
X10.2073 Y-13.5971
X10.2994 Y-13.7597
X10.3718 Y-13.9319
X10.4234 Y-14.1115
X10.4315 Y-14.15 F96.
X10.4431 Y-14.1595
X10.4825
X14.7772 F120.
X14.8165 F96.
X14.828 Y-14.1504
X14.8218 Y-14.1371
X14.7869 Y-14.119
X14.6175 Y-14.0154 F120.
X14.4617 Y-13.8924
X14.3217 Y-13.7516
X14.1995 Y-13.5952
X14.0968 Y-13.4253
X14.015 Y-13.2443
X13.9555 Y-13.0549
X13.9189 Y-12.8598
X13.9059 Y-12.6617
X13.9166 Y-12.4635
X13.9509 Y-12.2679
X14.0082 Y-12.0778
X14.0878 Y-11.8959
X14.1885 Y-11.7249
X14.3089 Y-11.567
X14.4473 Y-11.4246
X14.6016 Y-11.2997
X14.7698 Y-11.1942
X14.9493 Y-11.1094
X15.1376 Y-11.0466
X15.1504 Y-11.0351
X15.2333 Y-10.8458
X15.3373 Y-10.6672
X15.4609 Y-10.5016
X15.6026 Y-10.3511
X15.7604 Y-10.2178
X15.9325 Y-10.1033
X16.1164 Y-10.0091
X16.3099 Y-9.9365
X16.5104 Y-9.8864
X16.5491 Y-9.8794 F96.
X16.5582 Y-9.872
X16.5564 Y-9.8605
X16.5324 Y-9.8293
X16.4548 Y-9.7166 F120.
X16.3873 Y-9.5976
X16.3303 Y-9.4732
X16.3183 Y-9.4623
X16.1283 Y-9.3923
X15.9472 Y-9.3015
X15.7774 Y-9.191
X15.621 Y-9.0623
X15.4799 Y-8.917
X15.356 Y-8.7568
X15.2507 Y-8.5838
X15.1653 Y-8.4001
X15.101 Y-8.208
X15.0585 Y-8.01
X15.0384 Y-7.8084
X15.0409 Y-7.6059
X15.066 Y-7.4049
X15.1134 Y-7.208
X15.1825 Y-7.0175
X15.2724 Y-6.836
X15.382 Y-6.6657
X15.5099 Y-6.5086
X15.6545 Y-6.3668
X15.8141 Y-6.242
X15.9866 Y-6.1359
X16.1698 Y-6.0496
X16.3616 Y-5.9843
X16.5594 Y-5.9409
X16.7609 Y-5.9197
X16.7723 Y-5.9152
X16.9164 Y-5.8063
X17.0719 Y-5.7144
X17.2369 Y-5.6407
X17.2739 Y-5.6272 F96.
X17.2816 Y-5.6141
X17.2699 Y-5.6043
X17.2306
X16.8488 Y-5.6045 F120.
X16.646 Y-5.5931
X16.4458 Y-5.5591
X16.2507 Y-5.5029
X16.063 Y-5.4253
X15.8853 Y-5.3271
X15.7196 Y-5.2096
X15.5681 Y-5.0744
X15.4327 Y-4.923
X15.3151 Y-4.7575
X15.2168 Y-4.5798
X15.1389 Y-4.3922
X15.0825 Y-4.1971
X15.0484 Y-3.9969
X15.0368 Y-3.7942
X15.0298 Y-2.8101
X14.9752 Y-2.6983
X14.8042 Y-2.6256
X14.6471 Y-2.5375
X14.501 Y-2.4322
X14.3678 Y-2.3111
X14.2492 Y-2.1756
X14.1467 Y-2.0275
X14.0616 Y-1.8688
X13.995 Y-1.7015
X13.9478 Y-1.5277
X13.9206 Y-1.3497
X13.9174 Y-1.3105 F96.
X13.9137 Y-1.3027
X13.9056 Y-1.2995
X13.8662
X10.5093 F120.
X10.4699 F96.
X10.4619 Y-1.3027
X10.4581 Y-1.3105
X10.4549 Y-1.3497
X10.4271 Y-1.5307 F120.
X10.3786 Y-1.7072
X10.3101 Y-1.8771
X10.2225 Y-2.0379
X10.117 Y-2.1875
X9.9949 Y-2.3239
X9.8579 Y-2.4455
X9.7079 Y-2.5504
X9.5467 Y-2.6373
X9.3766 Y-2.7051
X9.1999 Y-2.7529
X9.0188 Y-2.78
X9.0077 Y-2.7855
X8.9009 Y-2.962
X8.7796 Y-3.1216
X8.6413 Y-3.2669
X8.4878 Y-3.396
X8.321 Y-3.5073
X8.143 Y-3.5995
X7.9558 Y-3.6715
X7.7618 Y-3.7224
X7.5634 Y-3.7515
X7.363 Y-3.7585
X7.163 Y-3.7434
X6.966 Y-3.7062
X6.7742 Y-3.6475
X6.5901 Y-3.5679
X6.416 Y-3.4685
X6.2538 Y-3.3504
X6.1058 Y-3.2152
X5.9735 Y-3.0644
X5.8588 Y-2.9
X5.7629 Y-2.7238
X5.6871 Y-2.5382
X5.6322 Y-2.3453
X5.599 Y-2.1475
X5.5879 Y-1.9473
X5.593 Y-1.8103
X5.6085 Y-1.674
X5.6079 Y-1.6654
X5.5685 Y-1.5091
X5.5451 Y-1.3497
X5.5419 Y-1.3105 F96.
X5.5381 Y-1.3027
X5.5301 Y-1.2995
X5.4907
X2.1338 F120.
X2.0944 F96.
X2.0863 Y-1.3027
X2.0826 Y-1.3105
X2.0794 Y-1.3497
X2.0522 Y-1.5277 F120.
X2.005 Y-1.7015
X1.9384 Y-1.8689
X1.8533 Y-2.0276
X1.7508 Y-2.1756
X1.6321 Y-2.3111
X1.4989 Y-2.4323
X1.3528 Y-2.5376
X1.1957 Y-2.6256
X1.0296 Y-2.6953
X.8568 Y-2.7458
X.6793 Y-2.7763
X.4995 Y-2.7865
X-.1712
X-.2105 F96.
X-.2212 Y-2.7932
X-.234 Y-2.8234
X-.2341 Y-2.83
X-.2368 Y-3.7936 F120.
X-.2472 Y-3.9866
X-.2781 Y-4.1773
X-.3291 Y-4.3636
X-.3997 Y-4.5434
X-.489 Y-4.7147
X-.5961 Y-4.8756
X-.7197 Y-5.0241
X-.8583 Y-5.1586
X-1.0106 Y-5.2776
X-1.1746 Y-5.3796
X-1.2093 Y-5.3983 F96.
X-1.2156 Y-5.4091
X-1.2145 Y-5.4484
X-1.213 Y-5.5004 F120.
Y-6.0408
Y-6.0801 F96.
X-1.2062 Y-6.0908
X-1.1708 Y-6.108
X-.9905 Y-6.2112 F120.
X-.8232 Y-6.3344
X-.6711 Y-6.4759
X-.5362 Y-6.6339
X-.4203 Y-6.8063
X-.3249 Y-6.9908
X-.2512 Y-7.185
X-.2002 Y-7.3864
X-.1726 Y-7.5923
X-.1688 Y-7.8
X-.1887 Y-8.0068
X-.2322 Y-8.2099
X-.2987 Y-8.4067
X-.3872 Y-8.5946
X-.4967 Y-8.7712
X-.6256 Y-8.9341
X-.7724 Y-9.0811
X-.935 Y-9.2104
X-1.1113 Y-9.3202
X-1.2991 Y-9.4091
X-1.3097 Y-9.4201
X-1.3773 Y-9.5777
X-1.4615 Y-9.7272
X-1.5614 Y-9.8666
X-1.5864 Y-9.8971 F96.
X-1.5886 Y-9.9082
X-1.5804 Y-9.9161
X-1.5425 Y-9.9267
X-1.3487 Y-9.9952 F120.
X-1.1639 Y-10.0853
X-.9905 Y-10.1956
X-.8307 Y-10.325
X-.6866 Y-10.4715
X-.5601 Y-10.6335
X-.4527 Y-10.8087
X-.3658 Y-10.995
X-.3516 Y-11.0317 F96.
X-.3434 Y-11.0391
X-.3053 Y-11.049
X-.1177 Y-11.1126 F120.
X.061 Y-11.1981
X.2282 Y-11.3042
X.3817 Y-11.4295
X.5191 Y-11.5722
X.6386 Y-11.7301
X.7385 Y-11.9012
X.8172 Y-12.0829
X.8739 Y-12.2728
X.9075 Y-12.468
X.9176 Y-12.6658
X.9042 Y-12.8634
X.8673 Y-13.058
X.8076 Y-13.2469
X.7258 Y-13.4273
X.6231 Y-13.5967
X.501 Y-13.7526
X.3612 Y-13.893
X.2057 Y-14.0157
X.0367 Y-14.119
X.0018 Y-14.1371 F96.
X-.0044 Y-14.1504
X.0071 Y-14.1595
X.0464
X5.5175 F120.
X5.5569 F96.
X5.5685 Y-14.15
X5.5766 Y-14.1115
X5.6011 Y-14.0163 F120.
X5.6315 Y-13.9229
X5.6321 Y-13.9123
X5.599 Y-13.7144
X5.5879 Y-13.514
X5.5991 Y-13.3124
X5.6328 Y-13.1133
X5.6883 Y-12.9191
X5.7652 Y-12.7324
X5.8624 Y-12.5553
X5.9786 Y-12.3902
X6.1125 Y-12.239
X6.2624 Y-12.1036
X6.2793 Y-12.0957
X6.298 Y-12.0965
X6.4681 Y-12.1454
X6.6382 Y-12.1944
X6.6681 Y-12.191
X6.8333 Y-12.1123
X7.0067 Y-12.0541
X7.1859 Y-12.0173
X7.3682 Y-12.0024
X7.551 Y-12.0097
X7.7316 Y-12.0389
X7.9073 Y-12.0898
X8.0756 Y-12.1615
X8.234 Y-12.253
X8.3802 Y-12.3629
X8.5121 Y-12.4898
X8.6276 Y-12.6316
X8.7253 Y-12.7863
X8.8034 Y-12.9517
X8.8611 Y-13.1253
X8.8707 Y-13.1634 F96.
X8.8822 Y-13.1725
X8.9215 Y-13.1733
X9.0953 Y-13.1915 F120.
X9.2651 Y-13.233
X9.4277 Y-13.2972
X9.5801 Y-13.3828
X9.7194 Y-13.4883
X9.8432 Y-13.6116
X9.9492 Y-13.7506
X10.0353 Y-13.9027
X10.1001 Y-14.065
X10.1422 Y-14.2347
X10.161 Y-14.4084
X10.1619 Y-14.4478 F96.
X10.1654 Y-14.4561
X10.1738 Y-14.4595
X10.2131
X15.212 F120.
X15.2514 F96.
X15.2597 Y-14.456
X15.2632 Y-14.4477
X15.2622 Y-14.4135
X15.2418 Y-14.365 F120.
X15.2062 Y-14.2576
X15.1802 Y-14.147
X15.1639 Y-14.0337
X15.1616 Y-13.9983
X15.159 Y-13.959 F96.
X15.1509 Y-13.9486
X15.1136 Y-13.936
X14.9492 Y-13.8653 F120.
X14.7955 Y-13.7738
X14.6551 Y-13.6628
X14.5304 Y-13.5344
X14.4237 Y-13.3908
X14.3367 Y-13.2345
X14.271 Y-13.0681
X14.2277 Y-12.8945
X14.2074 Y-12.7167
X14.2107 Y-12.5378
X14.2374 Y-12.3609
X14.287 Y-12.189
X14.3588 Y-12.0251
X14.4514 Y-11.872
X14.5633 Y-11.7324
X14.6925 Y-11.6086
X14.8368 Y-11.5029
X14.9937 Y-11.4169
X15.1606 Y-11.3523
X15.3345 Y-11.3102
X15.3733 Y-11.304 F96.
X15.3831 Y-11.2952
X15.3933 Y-11.2571
X15.4515 Y-11.0888 F120.
X15.5291 Y-10.9285
X15.6251 Y-10.7784
X15.738 Y-10.6407
X15.8663 Y-10.5172
X16.0083 Y-10.4096
X16.162 Y-10.3195
X16.3251 Y-10.2481
X16.4956 Y-10.1963
X16.6709 Y-10.165
X16.8487 Y-10.1545
X17.2481 Y-10.155
X17.3458 Y-10.1585
X17.4427 Y-10.1717
X17.5301 Y-10.1887
X17.6255 Y-10.2128
X17.7177 Y-10.247
X17.7474 Y-10.26
X17.7835 Y-10.2757 F96.
X17.7947 Y-10.2748
X17.8 Y-10.2649
Y-10.2255
Y-10.2126 F120.
Y-10.1732 F96.
X17.7966 Y-10.1649
X17.7883 Y-10.1614
X17.7489 Y-10.1605
X17.5744 Y-10.1416 F120.
X17.4042 Y-10.0991
X17.2412 Y-10.0339
X17.0887 Y-9.9471
X16.9494 Y-9.8403
X16.8259 Y-9.7156
X16.7205 Y-9.5752
X16.6352 Y-9.4218
X16.5715 Y-9.2583
X16.5604 Y-9.2205 F96.
X16.5513 Y-9.2121
X16.5128 Y-9.2039
X16.3354 Y-9.1518 F120.
X16.1656 Y-9.0785
X16.006 Y-8.9851
X15.8591 Y-8.8728
X15.7269 Y-8.7434
X15.6116 Y-8.5989
X15.5147 Y-8.4414
X15.4378 Y-8.2732
X15.382 Y-8.0969
X15.3481 Y-7.9151
X15.3367 Y-7.7305
X15.3479 Y-7.5459
X15.3816 Y-7.3641
X15.4372 Y-7.1877
X15.5139 Y-7.0195
X15.6105 Y-6.8618
X15.7257 Y-6.7172
X15.8577 Y-6.5876
X16.0045 Y-6.4752
X16.164 Y-6.3815
X16.3337 Y-6.308
X16.5111 Y-6.2558
X16.6935 Y-6.2256
X16.8783 Y-6.2179
X16.892 Y-6.2124
X17.0117 Y-6.1071
X17.1435 Y-6.0175
X17.2853 Y-5.9449
X17.4351 Y-5.8903
X17.5904 Y-5.8547
X17.7489 Y-5.8385
X17.7883 Y-5.8375 F96.
X17.7966 Y-5.834
X17.8 Y-5.8257
Y-5.7864
Y-5.2361 F120.
Y-5.1967 F96.
X17.7946 Y-5.1868
X17.7832 Y-5.186
X17.7472 Y-5.2019
X17.5845 Y-5.2586 F120.
X17.4157 Y-5.293
X17.2438 Y-5.3045
X16.8488
X16.6666 Y-5.2935
X16.4871 Y-5.2606
X16.3128 Y-5.2063
X16.1463 Y-5.1314
X15.9901 Y-5.037
X15.8464 Y-4.9245
X15.7173 Y-4.7954
X15.6047 Y-4.6518
X15.5102 Y-4.4956
X15.4352 Y-4.3292
X15.3809 Y-4.1549
X15.3479 Y-3.9754
X15.3368 Y-3.7932
X15.3312 Y-2.7368
X15.271 Y-2.6197
X15.223 Y-2.4971
X15.2111 Y-2.4596 F96.
X15.2025 Y-2.4515
X15.1643 Y-2.4418
X15.0054 Y-2.3874 F120.
X14.8548 Y-2.3128
X14.7153 Y-2.2192
X14.5891 Y-2.1082
X14.4785 Y-1.9817
X14.3853 Y-1.8419
X14.3111 Y-1.6911
X14.2572 Y-1.532
X14.2245 Y-1.3672
X14.2135 Y-1.1995
Y-1.0507
Y-1.0113 F96.
X14.2101 Y-1.003
X14.2017 Y-.9995
X14.1623
X10.2132 F120.
X10.1738 F96.
X10.1655 Y-1.003
X10.162 Y-1.0113
Y-1.0507
Y-1.1995 F120.
X10.151 Y-1.3675
X10.1181 Y-1.5326
X10.064 Y-1.692
X9.9896 Y-1.843
X9.8961 Y-1.983
X9.7851 Y-2.1095
X9.6585 Y-2.2205
X9.5185 Y-2.3141
X9.3675 Y-2.3885
X9.2081 Y-2.4426
X9.043 Y-2.4755
X8.875 Y-2.4865
X8.8599
X8.8205 F96.
X8.8095 Y-2.494
X8.7948 Y-2.5305
X8.7113 Y-2.6996 F120.
X8.6074 Y-2.8569
X8.4848 Y-3.0002
X8.3452 Y-3.127
X8.191 Y-3.2354
X8.0245 Y-3.3239
X7.8483 Y-3.3909
X7.6651 Y-3.4355
X7.4778 Y-3.4569
X7.2892 Y-3.4548
X7.1024 Y-3.4293
X6.9202 Y-3.3808
X6.7455 Y-3.31
X6.5809 Y-3.2179
X6.4291 Y-3.1061
X6.2924 Y-2.9763
X6.1729 Y-2.8304
X6.0725 Y-2.6709
X5.9927 Y-2.5
X5.9348 Y-2.3206
X5.8997 Y-2.1353
X5.8879 Y-1.9472
X5.8951 Y-1.7986
X5.9169 Y-1.6515
X5.9161 Y-1.6412
X5.8729 Y-1.4973
X5.8467 Y-1.3493
X5.838 Y-1.1993
Y-1.0507
Y-1.0113 F96.
X5.8345 Y-1.003
X5.8262 Y-.9995
X5.7868
X1.8377 F120.
X1.7983 F96.
X1.7899 Y-1.003
X1.7865 Y-1.0113
Y-1.0507
Y-1.1995 F120.
X1.7755 Y-1.3675
X1.7426 Y-1.5326
X1.6885 Y-1.692
X1.6141 Y-1.843
X1.5205 Y-1.983
X1.4095 Y-2.1095
X1.283 Y-2.2205
X1.143 Y-2.3141
X.992 Y-2.3885
X.8326 Y-2.4426
X.6675 Y-2.4755
X.4995 Y-2.4865
X-.3715
X-.4109 F96.
X-.4221 Y-2.4946
X-.4351 Y-2.5318
X-.4789 Y-2.6369 F120.
X-.5318 Y-2.7378
X-.5338 Y-2.7451
X-.5368 Y-3.7931
X-.5477 Y-3.9737
X-.5801 Y-4.1517
X-.6335 Y-4.3246
X-.7072 Y-4.4898
X-.8001 Y-4.6451
X-.9109 Y-4.7881
X-1.0379 Y-4.9169
X-1.1795 Y-5.0296
X-1.3335 Y-5.1246
X-1.4977 Y-5.2005
X-1.5346 Y-5.2144 F96.
X-1.5421 Y-5.228
X-1.5343 Y-5.2666
X-1.5183 Y-5.3828 F120.
X-1.513 Y-5.5
Y-6.2434
Y-6.2828 F96.
X-1.5049 Y-6.294
X-1.4677 Y-6.3068
X-1.2958 Y-6.3809 F120.
X-1.1344 Y-6.4757
X-.9859 Y-6.5898
X-.8527 Y-6.7213
X-.7367 Y-6.8682
X-.6398 Y-7.0284
X-.5635 Y-7.1993
X-.5088 Y-7.3783
X-.4766 Y-7.5627
X-.4675 Y-7.7497
X-.4816 Y-7.9364
X-.5186 Y-8.1198
X-.578 Y-8.2973
X-.6589 Y-8.4662
X-.76 Y-8.6237
X-.8799 Y-8.7675
X-1.0165 Y-8.8954
X-1.168 Y-9.0055
X-1.3318 Y-9.096
X-1.5056 Y-9.1655
X-1.5432 Y-9.1774 F96.
X-1.5512 Y-9.1858
X-1.5613 Y-9.2239
X-1.6183 Y-9.3843 F120.
X-1.6959 Y-9.5359
X-1.7929 Y-9.6758
X-1.9075 Y-9.8018
X-2.0378 Y-9.9115
X-2.1813 Y-10.003
X-2.3357 Y-10.0748
X-2.4983 Y-10.1256
X-2.5367 Y-10.1343 F96.
X-2.5452 Y-10.1415
X-2.5439 Y-10.1526
X-2.5339 Y-10.1576
X-2.4945 Y-10.1563
X-2.4433 Y-10.1545 F120.
X-2.0488
X-1.8713 Y-10.1649
X-1.6962 Y-10.1962
X-1.526 Y-10.2477
X-1.3631 Y-10.3189
X-1.2096 Y-10.4087
X-1.0678 Y-10.516
X-.9395 Y-10.6391
X-.8265 Y-10.7764
X-.7305 Y-10.9261
X-.6527 Y-11.086
X-.5942 Y-11.2539
X-.5839 Y-11.2919 F96.
X-.574 Y-11.3007
X-.535 Y-11.3062
X-.3664 Y-11.3435 F120.
X-.2038 Y-11.4018
X-.05 Y-11.4803
X.0927 Y-11.5775
X.222 Y-11.6921
X.3357 Y-11.8221
X.432 Y-11.9654
X.5094 Y-12.1198
X.5667 Y-12.2827
X.6029 Y-12.4516
X.6174 Y-12.6236
X.61 Y-12.7962
X.5809 Y-12.9664
X.5305 Y-13.1316
X.4595 Y-13.289
X.3693 Y-13.4362
X.2611 Y-13.5709
X.1367 Y-13.6907
X-.0018 Y-13.7938
X-.1523 Y-13.8786
X-.3123 Y-13.9436
X-.3498 Y-13.9556 F96.
X-.3581 Y-13.9664
X-.3605 Y-14.0056
X-.3786 Y-14.1435 F120.
X-.4115 Y-14.2785
X-.4587 Y-14.4093
X-.4624 Y-14.4179 F96.
X-.4632 Y-14.4479
X-.4597 Y-14.4561
X-.4514 Y-14.4595
X-.4121
X5.7869 F120.
X5.8262 F96.
X5.8346 Y-14.4561
X5.838 Y-14.4478
X5.839 Y-14.4084
X5.8552 Y-14.2497 F120.
X5.891 Y-14.0941
X5.9457 Y-13.9442
X5.9465 Y-13.9313
X5.914 Y-13.7942
X5.8944 Y-13.6548
X5.8879 Y-13.5141
X5.8993 Y-13.3289
X5.9332 Y-13.1465
X5.9893 Y-12.9697
X6.0666 Y-12.801
X6.164 Y-12.6431
X6.28 Y-12.4983
X6.4128 Y-12.3688
X6.4301 Y-12.3601
X6.4494 Y-12.3608
X6.6164 Y-12.4088
X6.7834 Y-12.4569
X6.8133 Y-12.4535
X6.9595 Y-12.3849
X7.1135 Y-12.3364
X7.2726 Y-12.3088
X7.434 Y-12.3026
X7.5947 Y-12.3179
X7.752 Y-12.3544
X7.903 Y-12.4115
X8.0451 Y-12.4881
X8.1758 Y-12.583
X8.2927 Y-12.6944
X8.3937 Y-12.8203
X8.4771 Y-12.9586
X8.5414 Y-13.1067
X8.5855 Y-13.2621
X8.6085 Y-13.4219
X8.6108 Y-13.4612 F96.
X8.6144 Y-13.4692
X8.6226 Y-13.4725
X8.662
X8.875 F120.
X9.0155 Y-13.4825
X9.1531 Y-13.5125
X9.285 Y-13.5617
X9.4086 Y-13.6292
X9.5213 Y-13.7136
X9.6209 Y-13.8131
X9.7053 Y-13.9259
X9.7728 Y-14.0495
X9.822 Y-14.1814
X9.852 Y-14.319
X9.862 Y-14.4595
Y-14.7083
Y-14.7477 F96.
X9.8655 Y-14.756
X9.8738 Y-14.7595
X9.9132
X15.5118 F120.
X15.5512 F96.
X15.5595 Y-14.756
X15.563 Y-14.7477
Y-14.7083
Y-14.4596 F120.
X15.5656 Y-14.3568
X15.5259 Y-14.2685
X15.4977 Y-14.1865
X15.4768 Y-14.1022
X15.4633 Y-14.015
X15.4578 Y-13.9303
X15.4575 Y-13.7582
X15.4574 Y-13.7188 F96.
X15.4469 Y-13.7071
X15.4079 Y-13.7019
X15.2596 Y-13.6683 F120.
X15.1176 Y-13.6138
X14.9849 Y-13.5397
X14.8641 Y-13.4473
X14.7577 Y-13.3386
X14.668 Y-13.2159
X14.5967 Y-13.0816
X14.5453 Y-12.9385
X14.5148 Y-12.7895
X14.506 Y-12.6377
X14.5189 Y-12.4862
X14.5534 Y-12.3381
X14.6086 Y-12.1964
X14.6835 Y-12.0641
X14.7765 Y-11.9438
X14.8857 Y-11.838
X15.009 Y-11.749
X15.1437 Y-11.6784
X15.2871 Y-11.6278
X15.4362 Y-11.5982
X15.5881 Y-11.5902
X15.6274 Y-11.5917 F96.
X15.6359 Y-11.5887
X15.6398 Y-11.5807
X15.6433 Y-11.5415
X15.6706 Y-11.3823 F120.
X15.7189 Y-11.2281
X15.7872 Y-11.0817
X15.8744 Y-10.9457
X15.979 Y-10.8225
X16.099 Y-10.7143
X16.2323 Y-10.623
X16.3765 Y-10.5503
X16.5292 Y-10.4974
X16.6875 Y-10.4653
X16.8487 Y-10.4545
X17.2108 Y-10.455
X17.2502 F96.
X17.2895 Y-10.4555
X17.3872 Y-10.4666 F120.
X17.4728 Y-10.4832
X17.5364 Y-10.4992
X17.5979 Y-10.5221
X17.6771 Y-10.5566
X17.7376 Y-10.5871
X17.7943 Y-10.6243
X17.8631 Y-10.6752
X17.9139 Y-10.7172
X17.9597 Y-10.7647
X18.0163 Y-10.83
X18.0568 Y-10.8822
X18.078 Y-10.9154 F96.
X18.0913 Y-10.9207
X18.1 Y-10.9093
Y-10.8699
Y-9.9127 F120.
Y-9.8733 F96.
X18.0965 Y-9.865
X18.0882 Y-9.8615
X18.0488
X17.8 F120.
X17.6571 Y-9.8511
X17.5173 Y-9.8201
X17.3834 Y-9.7692
X17.2582 Y-9.6995
X17.1445 Y-9.6124
X17.0446 Y-9.5098
X16.9606 Y-9.3937
X16.8943 Y-9.2668
X16.847 Y-9.1315
X16.8199 Y-8.9909
X16.816 Y-8.9517 F96.
X16.8047 Y-8.9408
X16.7654 Y-8.9388
X16.6015 Y-8.9162 F120.
X16.4423 Y-8.8715
X16.2907 Y-8.8056
X16.1494 Y-8.7196
X16.0211 Y-8.6152
X15.9083 Y-8.4943
X15.813 Y-8.3592
X15.7369 Y-8.2124
X15.6816 Y-8.0565
X15.648 Y-7.8946
X15.6367 Y-7.7296
X15.6484 Y-7.5616
X15.6832 Y-7.3969
X15.7406 Y-7.2385
X15.8193 Y-7.0896
X15.918 Y-6.9531
X16.0346 Y-6.8316
X16.1669 Y-6.7275
X16.3124 Y-6.6426
X16.4682 Y-6.5788
X16.6314 Y-6.5372
X16.7988 Y-6.5186
X16.9671 Y-6.5234
X17.0063 Y-6.5279 F96.
X17.0172 Y-6.5234
X17.0418 Y-6.4927
X17.1417 Y-6.3891 F120.
X17.2557 Y-6.3011
X17.3814 Y-6.2307
X17.5159 Y-6.1793
X17.6564 Y-6.148
X17.8 Y-6.1375
X18.0488
X18.0882 F96.
X18.0965 Y-6.134
X18.1 Y-6.1257
Y-6.0863
Y-4.5904 F120.
Y-4.551 F96.
X18.0915 Y-4.5397
X18.0782 Y-4.5447
X18.0565 Y-4.5776
X17.9716 Y-4.6842 F120.
X17.8728 Y-4.7781
X17.762 Y-4.8575
X17.6414 Y-4.9209
X17.5131 Y-4.967
X17.3798 Y-4.9951
X17.2438 Y-5.0045
X16.8488
X16.6906 Y-4.9941
X16.5352 Y-4.9632
X16.385 Y-4.9123
X16.2429 Y-4.8422
X16.1111 Y-4.7541
X15.9919 Y-4.6496
X15.8873 Y-4.5304
X15.7993 Y-4.3986
X15.7291 Y-4.2565
X15.6782 Y-4.1064
X15.6472 Y-3.9509
X15.6368 Y-3.7928
X15.6338 Y-2.657
X15.6315 Y-2.6504
X15.5559 Y-2.5208
X15.5008 Y-2.3812
X15.4675 Y-2.2348
X15.4625 Y-2.1958 F96.
X15.4513 Y-2.1853
X15.4121 Y-2.1825
X15.268 Y-2.1587 F120.
X15.129 Y-2.1139
X14.9981 Y-2.0491
X14.8782 Y-1.9656
X14.772 Y-1.8654
X14.6817 Y-1.7506
X14.6093 Y-1.6238
X14.5565 Y-1.4876
X14.5243 Y-1.3451
X14.5135 Y-1.1995
Y-.7507
Y-.7113 F96.
X14.51 Y-.7029
X14.5017 Y-.6995
X14.4623
X9.9132 F120.
X9.8738 F96.
X9.8655 Y-.7029
X9.862 Y-.7113
Y-.7507
Y-1.1995 F120.
X9.852 Y-1.34
X9.822 Y-1.4776
X9.7728 Y-1.6095
X9.7053 Y-1.7331
X9.6209 Y-1.8458
X9.5213 Y-1.9454
X9.4086 Y-2.0298
X9.285 Y-2.0973
X9.1531 Y-2.1465
X9.0155 Y-2.1764
X8.875 Y-2.1865
X8.6371
X8.5977 F96.
X8.5861 Y-2.1959
X8.5774 Y-2.2343
X8.5266 Y-2.3937 F120.
X8.4543 Y-2.5447
X8.3619 Y-2.6842
X8.2512 Y-2.8097
X8.1242 Y-2.9187
X7.9834 Y-3.0092
X7.8315 Y-3.0795
X7.6714 Y-3.1281
X7.506 Y-3.1543
X7.3387 Y-3.1574
X7.1726 Y-3.1374
X7.0107 Y-3.0947
X6.8563 Y-3.0302
X6.7123 Y-2.9449
X6.5813 Y-2.8407
X6.466 Y-2.7194
X6.3685 Y-2.5834
X6.2906 Y-2.4353
X6.2339 Y-2.2778
X6.1994 Y-2.114
X6.1879 Y-1.9471
X6.1986 Y-1.7859
X6.2306 Y-1.6276
X6.2295 Y-1.6146
X6.179 Y-1.4811
X6.1483 Y-1.3417
X6.138 Y-1.1993
Y-.7507
Y-.7113 F96.
X6.1345 Y-.7029
X6.1262 Y-.6995
X6.0868
X1.5377 F120.
X1.4983 F96.
X1.49 Y-.7029
X1.4865 Y-.7113
Y-.7507
Y-1.1995 F120.
X1.4765 Y-1.34
X1.4465 Y-1.4776
X1.3973 Y-1.6095
X1.3298 Y-1.7331
X1.2454 Y-1.8458
X1.1458 Y-1.9454
X1.0331 Y-2.0298
X.9095 Y-2.0973
X.7776 Y-2.1465
X.64 Y-2.1764
X.4995 Y-2.1865
X-.6115
X-.6509 F96.
X-.6588 Y-2.1895
X-.6626 Y-2.197
X-.6677 Y-2.2361
X-.7011 Y-2.3822 F120.
X-.7562 Y-2.5215
X-.8318 Y-2.6509
X-.8344 Y-2.6592
X-.8368 Y-3.7927
X-.8472 Y-3.951
X-.8782 Y-4.1065
X-.9292 Y-4.2567
X-.9994 Y-4.3989
X-1.0876 Y-4.5307
X-1.1922 Y-4.6499
X-1.3115 Y-4.7544
X-1.4434 Y-4.8425
X-1.5856 Y-4.9125
X-1.7358 Y-4.9634
X-1.8914 Y-4.9942
X-1.9305 Y-4.9987 F96.
X-1.9399 Y-5.005
X-1.9397 Y-5.0163
X-1.9211 Y-5.051
X-1.8743 Y-5.1576 F120.
X-1.8404 Y-5.2691
X-1.8199 Y-5.3837
X-1.813 Y-5.5
Y-6.4794
Y-6.5188 F96.
X-1.8029 Y-6.5305
X-1.7641 Y-6.5369
X-1.6005 Y-6.5783 F120.
X-1.4443 Y-6.6421
X-1.2985 Y-6.7269
X-1.1659 Y-6.8312
X-1.049 Y-6.9529
X-.9502 Y-7.0896
X-.8713 Y-7.2387
X-.8138 Y-7.3973
X-.779 Y-7.5624
X-.7674 Y-7.7307
X-.7793 Y-7.899
X-.8144 Y-8.064
X-.8721 Y-8.2225
X-.9513 Y-8.3715
X-1.0504 Y-8.5081
X-1.1675 Y-8.6295
X-1.3003 Y-8.7335
X-1.4463 Y-8.8181
X-1.6026 Y-8.8816
X-1.7662 Y-8.9228
X-1.8051 Y-8.9291 F96.
X-1.8152 Y-8.94
X-1.8186 Y-8.9792
X-1.8443 Y-9.1213 F120.
X-1.8906 Y-9.2581
X-1.9563 Y-9.3867
X-2.0401 Y-9.5043
X-2.1401 Y-9.6085
X-2.2543 Y-9.6969
X-2.3802 Y-9.7677
X-2.515 Y-9.8195
X-2.656 Y-9.8509
X-2.8 Y-9.8615
X-3.2488
X-3.2882 F96.
X-3.2965 Y-9.865
X-3.3 Y-9.8733
Y-9.9127
Y-10.2234 F120.
Y-10.2628 F96.
X-3.2952 Y-10.2439
X-3.2819 Y-10.2297
X-3.2684 Y-10.2242 F120.
X-3.1413 Y-10.1988
X-3.0142 Y-10.1734
X-2.996 Y-10.1644
X-2.9882 Y-10.1615
X-2.8005
X-2.71 Y-10.1584
X-2.6999 Y-10.1633
X-2.6986 Y-10.1745
X-2.7071 Y-10.1817
X-2.8478 Y-10.2195
X-2.9832 Y-10.273
X-2.9945 Y-10.2722
X-3. Y-10.2623
Y-10.2026
Y-10.1733 F96.
X-2.996 Y-10.1644
X-3.0334 Y-10.1766
X-3.2625 Y-10.2507 F120.
X-3.3 Y-10.2628 F96.
Y-10.3022
Y-10.8686 F120.
Y-10.908 F96.
X-3.2915 Y-10.9193
X-3.2782 Y-10.9143
X-3.2565 Y-10.8814
X-3.1716 Y-10.7748 F120.
X-3.0728 Y-10.6809
X-2.9621 Y-10.6015
X-2.8414 Y-10.5381
X-2.7132 Y-10.4919
X-2.5798 Y-10.4639
X-2.4438 Y-10.4545
X-2.0488
X-1.8875 Y-10.4653
X-1.729 Y-10.4975
X-1.5762 Y-10.5504
X-1.4318 Y-10.6233
X-1.2984 Y-10.7147
X-1.1784 Y-10.8231
X-1.0739 Y-10.9465
X-.9867 Y-11.0827
X-.9184 Y-11.2293
X-.8703 Y-11.3836
X-.8431 Y-11.543
X-.8397 Y-11.5823 F96.
X-.8357 Y-11.5904
X-.827 Y-11.5932
X-.7877 Y-11.5909
X-.6335 Y-11.5958 F120.
X-.4817 Y-11.623
X-.3354 Y-11.6719
X-.1978 Y-11.7414
X-.0716 Y-11.8302
X.0403 Y-11.9363
X.1357 Y-12.0575
X.2126 Y-12.1913
X.2692 Y-12.3347
X.3045 Y-12.4849
X.3176 Y-12.6386
X.3084 Y-12.7926
X.2769 Y-12.9436
X.2239 Y-13.0884
X.1504 Y-13.2241
X.0581 Y-13.3476
X-.0511 Y-13.4566
X-.175 Y-13.5485
X-.3108 Y-13.6215
X-.4558 Y-13.6741
X-.6069 Y-13.7051
X-.6461 Y-13.7094 F96.
X-.6537 Y-13.7132
X-.6568 Y-13.7212
Y-13.7606
Y-13.907 F120.
X-.6636 Y-14.0235
X-.6842 Y-14.1384
X-.7182 Y-14.25
X-.7651 Y-14.3568
X-.7668 Y-14.3641
X-.763 Y-14.4604
Y-14.7083
Y-14.7477 F96.
X-.7595 Y-14.756
X-.7512 Y-14.7595
X-.7118
X6.0868 F120.
X6.1262 F96.
X6.1345 Y-14.756
X6.138 Y-14.7477
Y-14.7083
Y-14.4595 F120.
X6.1463 Y-14.3314
X6.1712 Y-14.2056
X6.2122 Y-14.0839
X6.2687 Y-13.9687
X6.2699 Y-13.9525
X6.2245 Y-13.8101
X6.1971 Y-13.6632
X6.1879 Y-13.5141
X6.1989 Y-13.3507
X6.2319 Y-13.1903
X6.2863 Y-13.0358
X6.3609 Y-12.89
X6.4546 Y-12.7556
X6.5655 Y-12.6351
X6.5832 Y-12.6254
X6.6034 Y-12.6258
X6.766 Y-12.6726
X6.8908 Y-12.7085
X6.9286 Y-12.7194 F96.
X6.9585 Y-12.716
X6.9934 Y-12.6977
X7.1255 Y-12.6444 F120.
X7.2643 Y-12.6122
X7.4064 Y-12.6021
X7.5483 Y-12.6143
X7.6867 Y-12.6484
X7.818 Y-12.7036
X7.9391 Y-12.7786
X8.0471 Y-12.8715
X8.1393 Y-12.9801
X8.2134 Y-13.1018
X8.2677 Y-13.2335
X8.3008 Y-13.3721
X8.312 Y-13.5141
X8.3061 Y-13.6174
X8.2886 Y-13.7194
X8.2789 Y-13.7575 F96.
X8.2809 Y-13.7678
X8.2903 Y-13.7725
X8.3297
X8.875 F120.
X8.9943 Y-13.7829
X9.11 Y-13.8139
X9.2185 Y-13.8645
X9.3166 Y-13.9332
X9.4013 Y-14.0179
X9.47 Y-14.116
X9.5206 Y-14.2245
X9.5516 Y-14.3402
X9.562 Y-14.4595
Y-15.0083
Y-15.0477 F96.
X9.5655 Y-15.056
X9.5738 Y-15.0595
X9.6132
X15.8118 F120.
X15.8512 F96.
X15.8595 Y-15.056
X15.863 Y-15.0477
Y-15.0083
Y-14.4596 F120.
X15.8671 Y-14.3843
X15.8795 Y-14.3099
X15.8771 Y-14.2957
X15.8338 Y-14.2227
X15.8085 Y-14.168
X15.7881 Y-14.1112
X15.7727 Y-14.0528
X15.7625 Y-13.9932
X15.7578 Y-13.9306
X15.7569 Y-13.4446
Y-13.4052 F96.
X15.7524 Y-13.396
X15.7423 Y-13.3938
X15.7038 Y-13.4018
X15.5747 Y-13.414 F120.
X15.4454 Y-13.4041
X15.3196 Y-13.3724
X15.201 Y-13.3199
X15.0931 Y-13.248
X14.9989 Y-13.1588
X14.9212 Y-13.055
X14.8622 Y-12.9395
X14.8237 Y-12.8157
X14.8067 Y-12.6871
X14.8118 Y-12.5575
X14.8388 Y-12.4306
X14.8869 Y-12.3102
X14.9547 Y-12.1997
X15.0403 Y-12.1022
X15.1411 Y-12.0207
X15.2544 Y-11.9575
X15.3767 Y-11.9144
X15.5046 Y-11.8926
X15.6342 Y-11.8929
X15.762 Y-11.9151
X15.8841 Y-11.9587
X15.9195 Y-11.976 F96.
X15.9311 Y-11.9756
X15.9368 Y-11.9655
Y-11.9261
Y-11.6665 F120.
X15.948 Y-11.5238
X15.9814 Y-11.3847
X16.0362 Y-11.2525
X16.111 Y-11.1304
X16.2039 Y-11.0216
X16.3127 Y-10.9287
X16.4347 Y-10.8539
X16.5669 Y-10.7991
X16.7061 Y-10.7657
X16.8488 Y-10.7545
X17.253 Y-10.755
X17.3317 Y-10.7614
X17.4155 Y-10.7777
X17.4781 Y-10.7971
X17.5573 Y-10.8317
X17.6159 Y-10.8655
X17.6847 Y-10.9163
X17.733 Y-10.9611
X17.7896 Y-11.0264
X17.8276 Y-11.0818
X17.8678 Y-11.1573
X17.8923 Y-11.2189
X17.9152 Y-11.3025
X17.9249 Y-11.3584
X17.9308 Y-11.4423
Y-12.4713
Y-12.5107 F96.
X17.9343 Y-12.519
X17.9426 Y-12.5225
X17.982
X18.3488 F120.
X18.3882 F96.
X18.3965 Y-12.519
X18.4 Y-12.5107
Y-12.4713
Y-9.6127 F120.
Y-9.5733 F96.
X18.3965 Y-9.5649
X18.3882 Y-9.5615
X18.3488
X17.8 F120.
X17.6807 Y-9.5511
X17.565 Y-9.5201
X17.4565 Y-9.4695
X17.3584 Y-9.4008
X17.2737 Y-9.3161
X17.205 Y-9.218
X17.1544 Y-9.1095
X17.1234 Y-8.9938
X17.113 Y-8.8745
Y-8.6576
Y-8.6182 F96.
X17.1083 Y-8.6088
X17.098 Y-8.6068
X17.0599 Y-8.6168
X16.9246 Y-8.6385 F120.
X16.7876 Y-8.6396
X16.6519 Y-8.6202
X16.5207 Y-8.5807
X16.3969 Y-8.5219
X16.2833 Y-8.4453
X16.1825 Y-8.3526
X16.0967 Y-8.2457
X16.0279 Y-8.1273
X15.9776 Y-7.9998
X15.947 Y-7.8662
X15.9367 Y-7.7296
X15.9477 Y-7.5885
X15.9803 Y-7.4507
X16.0339 Y-7.3197
X16.1072 Y-7.1985
X16.1983 Y-7.0902
X16.3051 Y-6.9972
X16.425 Y-6.9219
X16.5551 Y-6.8661
X16.6922 Y-6.8311
X16.8332 Y-6.8177
X16.9745 Y-6.8263
X17.1127 Y-6.8567
X17.1502 Y-6.8689 F96.
X17.1589 Y-6.8686
X17.165 Y-6.8623
X17.1811 Y-6.8264
X17.2366 Y-6.7314 F120.
X17.3065 Y-6.6465
X17.3891 Y-6.5739
X17.4823 Y-6.5154
X17.5835 Y-6.4725
X17.6904 Y-6.4463
X17.8 Y-6.4375
X18.3488
X18.3882 F96.
X18.3965 Y-6.434
X18.4 Y-6.4257
Y-6.3863
Y-2.9877 F120.
Y-2.9483 F96.
X18.3965 Y-2.94
X18.3882 Y-2.9365
X18.3488
X17.982 F120.
X17.9426 F96.
X17.9343 Y-2.94
X17.9308 Y-2.9483
Y-2.9877
Y-4.0175 F120.
X17.9204 Y-4.1368
X17.8894 Y-4.2525
X17.8388 Y-4.361
X17.7701 Y-4.4591
X17.6854 Y-4.5438
X17.5873 Y-4.6124
X17.4788 Y-4.6631
X17.3631 Y-4.6941
X17.2438 Y-4.7045
X16.8488
X16.7061 Y-4.6933
X16.567 Y-4.6599
X16.4348 Y-4.6051
X16.3127 Y-4.5303
X16.2039 Y-4.4374
X16.111 Y-4.3286
X16.0362 Y-4.2065
X15.9814 Y-4.0743
X15.948 Y-3.9352
X15.9368 Y-3.7925
X15.9349 Y-2.5553
X15.9316 Y-2.5476
X15.857 Y-2.4471
X15.802 Y-2.3348
X15.7682 Y-2.2144
X15.7568 Y-2.0898
Y-1.9377
Y-1.8983 F96.
X15.7533 Y-1.89
X15.745 Y-1.8865
X15.7056
X15.5005 F120.
X15.3812 Y-1.8761
X15.2655 Y-1.8451
X15.157 Y-1.7945
X15.0589 Y-1.7258
X14.9742 Y-1.6411
X14.9055 Y-1.543
X14.8549 Y-1.4345
X14.8239 Y-1.3188
X14.8135 Y-1.1995
Y-.4507
Y-.4113 F96.
X14.8101 Y-.4029
X14.8017 Y-.3995
X14.7623
X9.6132 F120.
X9.5738 F96.
X9.5655 Y-.4029
X9.562 Y-.4113
Y-.4507
Y-1.1995 F120.
X9.5516 Y-1.3188
X9.5206 Y-1.4345
X9.47 Y-1.543
X9.4013 Y-1.6411
X9.3166 Y-1.7258
X9.2185 Y-1.7945
X9.11 Y-1.8451
X8.9943 Y-1.8761
X8.875 Y-1.8865
X8.3619
X8.3225 F96.
X8.3141 Y-1.8901
X8.3107 Y-1.8986
X8.3117 Y-1.938
X8.312 Y-1.9473 F120.
X8.3007 Y-2.09
X8.2672 Y-2.2291
X8.2124 Y-2.3613
X8.1376 Y-2.4832
X8.0446 Y-2.592
X7.9358 Y-2.6849
X7.8137 Y-2.7596
X7.6815 Y-2.8143
X7.5424 Y-2.8477
X7.3998 Y-2.8589
X7.2571 Y-2.8477
X7.118 Y-2.8142
X6.9858 Y-2.7595
X6.8638 Y-2.6847
X6.755 Y-2.5918
X6.662 Y-2.4829
X6.5873 Y-2.3609
X6.5325 Y-2.2287
X6.4991 Y-2.0896
X6.4879 Y-1.947
X6.4955 Y-1.8287
X6.5185 Y-1.7123
X6.5564 Y-1.6
X6.5567 Y-1.5877
X6.5044 Y-1.4942
X6.4677 Y-1.3996
X6.4454 Y-1.3006
X6.438 Y-1.1994
Y-.4507
Y-.4113 F96.
X6.4345 Y-.4029
X6.4262 Y-.3995
X6.3868
X1.2377 F120.
X1.1983 F96.
X1.19 Y-.4029
X1.1865 Y-.4113
Y-.4507
Y-1.1995 F120.
X1.1761 Y-1.3188
X1.1451 Y-1.4345
X1.0944 Y-1.543
X1.0258 Y-1.6411
X.9411 Y-1.7258
X.843 Y-1.7945
X.7345 Y-1.8451
X.6188 Y-1.8761
X.4995 Y-1.8865
X-.9056
X-.945 F96.
X-.9533 Y-1.89
X-.9568 Y-1.8983
Y-1.9377
Y-2.0898 F120.
X-.9682 Y-2.2144
X-1.002 Y-2.3348
X-1.0571 Y-2.4471
X-1.1316 Y-2.5476
X-1.1353 Y-2.5574
X-1.1368 Y-3.7925
X-1.148 Y-3.9352
X-1.1814 Y-4.0743
X-1.2362 Y-4.2065
X-1.311 Y-4.3286
X-1.4039 Y-4.4374
X-1.5127 Y-4.5303
X-1.6348 Y-4.6051
X-1.767 Y-4.6599
X-1.9061 Y-4.6933
X-2.0488 Y-4.7045
X-2.4438
X-2.5631 Y-4.6941
X-2.6788 Y-4.6631
X-2.7873 Y-4.6124
X-2.8854 Y-4.5438
X-2.9701 Y-4.4591
X-3.0388 Y-4.361
X-3.0894 Y-4.2525
X-3.1204 Y-4.1368
X-3.1308 Y-4.0175
Y-2.9877
Y-2.9483 F96.
X-3.1343 Y-2.94
X-3.1426 Y-2.9365
X-3.182
X-3.5488 F120.
X-3.5882 F96.
X-3.5965 Y-2.94
X-3.6 Y-2.9483
Y-2.9877
Y-4.7618 F120.
Y-4.8012 F96.
X-3.5965 Y-4.8095
X-3.5882 Y-4.813
X-3.5488
X-2.8 F120.
X-2.6807 Y-4.8234
X-2.565 Y-4.8544
X-2.4565 Y-4.905
X-2.3584 Y-4.9737
X-2.2737 Y-5.0584
X-2.205 Y-5.1565
X-2.1544 Y-5.265
X-2.1234 Y-5.3807
X-2.113 Y-5.5
Y-6.7744
Y-6.8138 F96.
X-2.109 Y-6.8227
X-2.0996 Y-6.8255
X-2.0605 Y-6.8212
X-1.923 Y-6.8193 F120.
X-1.7868 Y-6.8381
X-1.655 Y-6.8772
X-1.5306 Y-6.9357
X-1.4163 Y-7.0122
X-1.3149 Y-7.105
X-1.2285 Y-7.2119
X-1.1592 Y-7.3307
X-1.1086 Y-7.4585
X-1.0777 Y-7.5925
X-1.0674 Y-7.7296
X-1.0777 Y-7.8667
X-1.1086 Y-8.0007
X-1.1592 Y-8.1285
X-1.2285 Y-8.2473
X-1.3149 Y-8.3543
X-1.4163 Y-8.4471
X-1.5306 Y-8.5236
X-1.655 Y-8.582
X-1.7868 Y-8.6211
X-1.923 Y-8.6399
X-2.0605 Y-8.638
X-2.0996 Y-8.6337 F96.
X-2.109 Y-8.6365
X-2.113 Y-8.6454
Y-8.6848
Y-8.8745 F120.
X-2.1234 Y-8.9938
X-2.1544 Y-9.1095
X-2.205 Y-9.218
X-2.2737 Y-9.3161
X-2.3584 Y-9.4008
X-2.4565 Y-9.4695
X-2.565 Y-9.5201
X-2.6807 Y-9.5511
X-2.8 Y-9.5615
X-3.5488
X-3.5882 F96.
X-3.5965 Y-9.5649
X-3.6 Y-9.5733
Y-9.6127
Y-12.4713 F120.
Y-12.5107 F96.
X-3.5965 Y-12.519
X-3.5882 Y-12.5225
X-3.5488
X-3.182 F120.
X-3.1426 F96.
X-3.1343 Y-12.519
X-3.1308 Y-12.5107
Y-12.4713
Y-11.4415 F120.
X-3.1204 Y-11.3222
X-3.0894 Y-11.2065
X-3.0388 Y-11.098
X-2.9701 Y-10.9999
X-2.8854 Y-10.9152
X-2.7873 Y-10.8465
X-2.6788 Y-10.7959
X-2.5631 Y-10.7649
X-2.4438 Y-10.7545
X-2.0488
X-1.9061 Y-10.7657
X-1.767 Y-10.7991
X-1.6348 Y-10.8539
X-1.5127 Y-10.9287
X-1.4039 Y-11.0216
X-1.311 Y-11.1304
X-1.2362 Y-11.2524
X-1.1814 Y-11.3847
X-1.148 Y-11.5238
X-1.1368 Y-11.6665
Y-11.9389
Y-11.9783 F96.
X-1.1309 Y-11.9885
X-1.1192 Y-11.9886
X-1.0844 Y-11.9701
X-.9617 Y-11.9216 F120.
X-.8324 Y-11.8951
X-.7005 Y-11.8912
X-.5699 Y-11.9102
X-.4445 Y-11.9514
X-.3281 Y-12.0137
X-.2242 Y-12.0951
X-.1359 Y-12.1931
X-.0659 Y-12.305
X-.0162 Y-12.4272
X.0117 Y-12.5562
X.0168 Y-12.6881
X-.0008 Y-12.8189
X-.0408 Y-12.9447
X-.1018 Y-13.0617
X-.1821 Y-13.1664
X-.2793 Y-13.2557
X-.3904 Y-13.3268
X-.5122 Y-13.3778
X-.6409 Y-13.4069
X-.7727 Y-13.4135
X-.9036 Y-13.3971
X-.9419 Y-13.3879 F96.
X-.9522 Y-13.39
X-.9568 Y-13.3993
Y-13.4387
Y-13.9071 F120.
X-.9644 Y-14.0097
X-.9874 Y-14.11
X-1.025 Y-14.2058
X-1.0766 Y-14.2948
X-1.0795 Y-14.3097
X-1.0671 Y-14.3842
X-1.063 Y-14.4596
Y-15.0083
Y-15.0477 F96.
X-1.0595 Y-15.056
X-1.0512 Y-15.0595
X-1.0118
X6.3868 F120.
X6.4262 F96.
X6.4345 Y-15.056
X6.438 Y-15.0477
Y-15.0083
Y-14.4595 F120.
X6.4479 Y-14.3432
X6.4774 Y-14.2303
X6.5255 Y-14.124
X6.5909 Y-14.0274
X6.6165 Y-13.9975 F96.
X6.6179 Y-13.9835
X6.5984 Y-13.9493
X6.5506 Y-13.8466 F120.
X6.5159 Y-13.7386
X6.4949 Y-13.6273
X6.4879 Y-13.5141
X6.4977 Y-13.3809
X6.5268 Y-13.2505
X6.5747 Y-13.1258
X6.6403 Y-13.0093
X6.7222 Y-12.9038
X6.7406 Y-12.8923
X6.7623
X6.9181 Y-12.9371
X7.0738 Y-12.9819
X7.1037 Y-12.9786
X7.2094 Y-12.9325
X7.322 Y-12.9071
X7.4372 Y-12.9032
X7.5512 Y-12.9211
X7.6597 Y-12.96
X7.7591 Y-13.0186
X7.8457 Y-13.0948
X7.9165 Y-13.1859
X7.9689 Y-13.2886
X8.0011 Y-13.3993
X8.012 Y-13.5142
X8.0035 Y-13.616
X7.9781 Y-13.7151
X7.9366 Y-13.8085
X7.88 Y-13.8937
X7.8101 Y-13.9683
X7.7288 Y-14.0303
X7.6949 Y-14.0503 F96.
X7.6891 Y-14.0636
X7.7006 Y-14.0725
X7.74
X8.875 F120.
X8.9611 Y-14.0822
X9.0429 Y-14.1108
X9.1163 Y-14.1569
X9.1776 Y-14.2182
X9.2237 Y-14.2916
X9.2523 Y-14.3734
X9.262 Y-14.4595
Y-15.3083
Y-15.3477 F96.
X9.2655 Y-15.356
X9.2738 Y-15.3595
X9.3132
X16.1118 F120.
X16.1512 F96.
X16.1595 Y-15.356
X16.163 Y-15.3477
Y-15.3083
Y-14.4595 F120.
X16.1745 Y-14.3655
X16.2087 Y-14.2772
X16.2291 Y-14.2435 F96.
X16.2309 Y-14.2346
X16.2258 Y-14.227
X16.21 Y-14.2152
X16.1944 Y-14.2033
X16.1851 Y-14.1948 F120.
X16.1618 Y-14.172
X16.1573 Y-14.167
X16.14 Y-14.1468
X16.1212 Y-14.121
X16.1166 Y-14.1133
X16.1037 Y-14.0918
X16.0994 Y-14.0831
X16.0889 Y-14.0613
X16.0851 Y-14.0517
X16.0768 Y-14.0297
X16.0736 Y-14.0191
X16.0676 Y-13.9974
X16.0651 Y-13.9856
X16.0613 Y-13.9645
X16.0596 Y-13.9515
X16.0578 Y-13.9312
X16.0568 Y-13.3692
X16.0663 Y-13.284
X16.0943 Y-13.2029
X16.1395 Y-13.13
X16.1997 Y-13.0689
X16.2315 Y-13.0456 F96.
X16.2368 Y-13.0358
Y-12.9964
Y-11.6665 F120.
X16.2486 Y-11.5471
X16.2834 Y-11.4323
X16.3399 Y-11.3265
X16.416 Y-11.2337
X16.5088 Y-11.1576
X16.6146 Y-11.1011
X16.7294 Y-11.0663
X16.8488 Y-11.0545
X17.2563 Y-11.0551
X17.2744 Y-11.0559
X17.3583 Y-11.0722
X17.4375 Y-11.1067
X17.5063 Y-11.1575
X17.5628 Y-11.2228
X17.603 Y-11.2983
X17.6259 Y-11.3816
X17.6308 Y-11.4415
Y-12.8038
Y-12.8432 F96.
X17.6361 Y-12.8531
X17.6473 Y-12.854
X17.6842 Y-12.8403
X17.7414 Y-12.8269 F120.
X17.8 Y-12.8225
X18.6488
X18.6882 F96.
X18.6965 Y-12.819
X18.7 Y-12.8107
Y-12.7713
Y-9.3127 F120.
Y-9.2733 F96.
X18.6965 Y-9.265
X18.6882 Y-9.2615
X18.6488
X17.8 F120.
X17.7139 Y-9.2518
X17.6321 Y-9.2232
X17.5587 Y-9.1771
X17.4974 Y-9.1158
X17.4513 Y-9.0424
X17.4227 Y-8.9606
X17.413 Y-8.8745
Y-8.0581
Y-8.0187 F96.
X17.404 Y-8.0073
X17.3907 Y-8.0132
X17.3714 Y-8.0475
X17.3038 Y-8.1385 F120.
X17.2207 Y-8.2154
X17.1248 Y-8.2757
X17.0194 Y-8.3173
X16.9082 Y-8.3387
X16.7949 Y-8.3393
X16.6835 Y-8.3189
X16.5777 Y-8.2784
X16.4812 Y-8.2191
X16.3973 Y-8.143
X16.3288 Y-8.0527
X16.2782 Y-7.9513
X16.2472 Y-7.8424
X16.2367 Y-7.7296
X16.2472 Y-7.6168
X16.2782 Y-7.5079
X16.3288 Y-7.4065
X16.3973 Y-7.3163
X16.4812 Y-7.2401
X16.5777 Y-7.1808
X16.6835 Y-7.1403
X16.7949 Y-7.12
X16.9082 Y-7.1205
X17.0194 Y-7.1419
X17.1248 Y-7.1835
X17.2207 Y-7.2438
X17.3038 Y-7.3208
X17.3714 Y-7.4117
X17.3907 Y-7.446 F96.
X17.404 Y-7.452
X17.413 Y-7.4405
Y-7.4011
Y-7.1245 F120.
X17.4227 Y-7.0384
X17.4513 Y-6.9566
X17.4974 Y-6.8832
X17.5587 Y-6.8219
X17.6321 Y-6.7758
X17.7139 Y-6.7472
X17.8 Y-6.7375
X18.6488
X18.6882 F96.
X18.6965 Y-6.734
X18.7 Y-6.7257
Y-6.6863
Y-2.6877 F120.
Y-2.6483 F96.
X18.6965 Y-2.6399
X18.6882 Y-2.6365
X18.6488
X17.8 F120.
X17.7414 Y-2.6321
X17.6842 Y-2.6187
X17.6473 Y-2.6049 F96.
X17.6361 Y-2.6059
X17.6308 Y-2.6158
Y-2.6551
Y-4.0175 F120.
X17.6211 Y-4.1036
X17.5925 Y-4.1854
X17.5464 Y-4.2588
X17.4851 Y-4.3201
X17.4117 Y-4.3662
X17.3299 Y-4.3948
X17.2438 Y-4.4045
X16.8488
X16.7294 Y-4.3927
X16.6146 Y-4.3579
X16.5088 Y-4.3014
X16.416 Y-4.2252
X16.3399 Y-4.1325
X16.2834 Y-4.0267
X16.2486 Y-3.9119
X16.2368 Y-3.7925
Y-2.4626
Y-2.4232 F96.
X16.2315 Y-2.4133
X16.1997 Y-2.3901
X16.1395 Y-2.329 F120.
X16.0943 Y-2.2561
X16.0663 Y-2.175
X16.0568 Y-2.0898
Y-1.6377
Y-1.5983 F96.
X16.0533 Y-1.5899
X16.045 Y-1.5865
X16.0056
X15.5005 F120.
X15.4144 Y-1.5768
X15.3326 Y-1.5482
X15.2592 Y-1.5021
X15.1979 Y-1.4408
X15.1518 Y-1.3674
X15.1232 Y-1.2856
X15.1135 Y-1.1995
Y-.1507
Y-.1113 F96.
X15.11 Y-.1029
X15.1017 Y-.0995
X15.0623
X9.3132 F120.
X9.2738 F96.
X9.2655 Y-.1029
X9.262 Y-.1113
Y-.1507
Y-1.1995 F120.
X9.2523 Y-1.2856
X9.2237 Y-1.3674
X9.1776 Y-1.4408
X9.1163 Y-1.5021
X9.0429 Y-1.5482
X8.9611 Y-1.5768
X8.875 Y-1.5865
X7.9565
X7.9171 F96.
X7.9067 Y-1.5928
X7.9073 Y-1.6049
X7.9283 Y-1.6382
X7.9743 Y-1.7356 F120.
X8.0025 Y-1.8396
X8.012 Y-1.9468
X8.0002 Y-2.0663
X7.9654 Y-2.1811
X7.9088 Y-2.2869
X7.8327 Y-2.3796
X7.74 Y-2.4558
X7.6341 Y-2.5123
X7.5193 Y-2.5471
X7.3999 Y-2.5589
X7.2805 Y-2.5471
X7.1657 Y-2.5123
X7.0599 Y-2.4558
X6.9671 Y-2.3796
X6.891 Y-2.2869
X6.8345 Y-2.1811
X6.7996 Y-2.0663
X6.7879 Y-1.9469
X6.7956 Y-1.8496
X6.8188 Y-1.7547
X6.8567 Y-1.6648
X6.9086 Y-1.5821
X6.9331 Y-1.5513 F96.
X6.9358 Y-1.5417
X6.93 Y-1.5334
X6.8971 Y-1.512
X6.8304 Y-1.4504 F120.
X6.78 Y-1.3748
X6.7486 Y-1.2897
X6.738 Y-1.1995
Y-.1507
Y-.1113 F96.
X6.7345 Y-.1029
X6.7262 Y-.0995
X6.6868
X.9377 F120.
X.8983 F96.
X.89 Y-.1029
X.8865 Y-.1113
Y-.1507
Y-1.1995 F120.
X.8768 Y-1.2856
X.8482 Y-1.3674
X.8021 Y-1.4408
X.7408 Y-1.5021
X.6674 Y-1.5482
X.5856 Y-1.5768
X.4995 Y-1.5865
X-1.2056
X-1.245 F96.
X-1.2533 Y-1.5899
X-1.2568 Y-1.5983
Y-1.6377
Y-2.0898 F120.
X-1.2663 Y-2.175
X-1.2943 Y-2.2561
X-1.3396 Y-2.329
X-1.3997 Y-2.3901
X-1.4315 Y-2.4133 F96.
X-1.4368 Y-2.4232
Y-2.4626
Y-3.7925 F120.
X-1.4486 Y-3.9119
X-1.4834 Y-4.0267
X-1.5399 Y-4.1325
X-1.616 Y-4.2252
X-1.7088 Y-4.3014
X-1.8146 Y-4.3579
X-1.9294 Y-4.3927
X-2.0488 Y-4.4045
X-2.4438
X-2.5299 Y-4.3948
X-2.6117 Y-4.3662
X-2.6851 Y-4.3201
X-2.7464 Y-4.2588
X-2.7925 Y-4.1854
X-2.8211 Y-4.1036
X-2.8308 Y-4.0175
Y-2.6877
Y-2.6483 F96.
X-2.8343 Y-2.6399
X-2.8426 Y-2.6365
X-2.882
X-3.8488 F120.
X-3.8882 F96.
X-3.8965 Y-2.6399
X-3.9 Y-2.6483
Y-2.6877
Y-5.0618 F120.
Y-5.1012 F96.
X-3.8965 Y-5.1095
X-3.8882 Y-5.113
X-3.8488
X-2.8 F120.
X-2.7139 Y-5.1227
X-2.6321 Y-5.1513
X-2.5587 Y-5.1974
X-2.4974 Y-5.2587
X-2.4513 Y-5.3321
X-2.4227 Y-5.4139
X-2.413 Y-5.5
Y-7.2306
Y-7.2699 F96.
X-2.4059 Y-7.2808
X-2.3932 Y-7.2786
X-2.3634 Y-7.253
X-2.2678 Y-7.1898 F120.
X-2.1622 Y-7.1455
X-2.0502 Y-7.1217
X-1.9357 Y-7.1191
X-1.8227 Y-7.138
X-1.7152 Y-7.1775
X-1.617 Y-7.2364
X-1.5314 Y-7.3126
X-1.4616 Y-7.4033
X-1.4099 Y-7.5056
X-1.3781 Y-7.6156
X-1.3674 Y-7.7296
X-1.3781 Y-7.8437
X-1.4099 Y-7.9537
X-1.4616 Y-8.0559
X-1.5314 Y-8.1466
X-1.617 Y-8.2228
X-1.7152 Y-8.2817
X-1.8227 Y-8.3213
X-1.9357 Y-8.3401
X-2.0502 Y-8.3376
X-2.1622 Y-8.3137
X-2.2678 Y-8.2694
X-2.3634 Y-8.2063
X-2.3932 Y-8.1806 F96.
X-2.4059 Y-8.1785
X-2.413 Y-8.1893
Y-8.2287
Y-8.8745 F120.
X-2.4227 Y-8.9606
X-2.4513 Y-9.0424
X-2.4974 Y-9.1158
X-2.5587 Y-9.1771
X-2.6321 Y-9.2232
X-2.7139 Y-9.2518
X-2.8 Y-9.2615
X-3.8488
X-3.8882 F96.
X-3.8965 Y-9.265
X-3.9 Y-9.2733
Y-9.3127
Y-12.7713 F120.
Y-12.8107 F96.
X-3.8965 Y-12.819
X-3.8882 Y-12.8225
X-3.8488
X-2.882 F120.
X-2.8426 F96.
X-2.8343 Y-12.819
X-2.8308 Y-12.8107
Y-12.7713
Y-11.4415 F120.
X-2.8211 Y-11.3554
X-2.7925 Y-11.2736
X-2.7464 Y-11.2002
X-2.6851 Y-11.1389
X-2.6117 Y-11.0928
X-2.5299 Y-11.0642
X-2.4438 Y-11.0545
X-2.0488
X-1.9294 Y-11.0663
X-1.8146 Y-11.1011
X-1.7088 Y-11.1576
X-1.616 Y-11.2337
X-1.5399 Y-11.3265
X-1.4834 Y-11.4323
X-1.4486 Y-11.5471
X-1.4368 Y-11.6665
Y-12.9964
Y-13.0358 F96.
X-1.4315 Y-13.0456
X-1.3997 Y-13.0689
X-1.3396 Y-13.13 F120.
X-1.2943 Y-13.2029
X-1.2663 Y-13.284
X-1.2568 Y-13.3692
Y-13.9072
X-1.2659 Y-13.9908
X-1.2929 Y-14.0704
X-1.3365 Y-14.1424
X-1.3947 Y-14.2031
X-1.4261 Y-14.2268 F96.
X-1.4311 Y-14.2343
X-1.4293 Y-14.2432
X-1.4089 Y-14.2768
X-1.3746 Y-14.3653 F120.
X-1.363 Y-14.4595
Y-15.3083
Y-15.3477 F96.
X-1.3595 Y-15.356
X-1.3512 Y-15.3595
X-1.3118
X6.6868 F120.
X6.7262 F96.
X6.7345 Y-15.356
X6.738 Y-15.3477
Y-15.3083
Y-14.4595 F120.
X6.7486 Y-14.3695
X6.7798 Y-14.2845
X6.83 Y-14.209
X6.8963 Y-14.1473
X6.9752 Y-14.1027
X7.0622 Y-14.0776
X7.1014 Y-14.0732 F96.
X7.1121 Y-14.064
X7.1063 Y-14.0511
X7.0724 Y-14.0311
X6.9907 Y-13.9692 F120.
X6.9204 Y-13.8945
X6.8637 Y-13.8092
X6.8219 Y-13.7156
X6.7964 Y-13.6163
X6.7879 Y-13.5142
X6.7964 Y-13.4125
X6.8216 Y-13.3137
X6.863 Y-13.2204
X6.9192 Y-13.1353
X6.9889 Y-13.0607
X7.0699 Y-12.9987
X7.1037 Y-12.9786 F96.
X7.0646 Y-12.9829
X3.357 Y-13.3925 F120.
X3.3178 Y-13.3968 F96.
X3.2987 Y-13.4043
X3.286 Y-13.4204
X3.2831 Y-13.4407
X3.2865 Y-13.4799
X3.2822 Y-13.5946 F120.
X3.2565 Y-13.7064
X3.2104 Y-13.8115
X3.1455 Y-13.9062
X3.064 Y-13.987
X2.9689 Y-14.0513
X2.8635 Y-14.0966
X2.7515 Y-14.1215
X2.6367 Y-14.125
X2.5234 Y-14.107
X2.4154 Y-14.0682
X2.3165 Y-14.0099
X2.2303 Y-13.9342
X2.1597 Y-13.8437
X2.1072 Y-13.7416
X2.0748 Y-13.6315
X2.0634 Y-13.5173
X2.0736 Y-13.403
X2.082 Y-13.3645 F96.
X2.0776 Y-13.3347
X2.0534 Y-13.3167
X2.0152 Y-13.3071
X-.2103 Y-12.746 F120.
X-.2485 Y-12.7364 F96.
X-.2783 Y-12.7408
X-.2963 Y-12.7649
X-.3076 Y-12.8026
X-.3508 Y-12.894 F120.
X-.4128 Y-12.9738
X-.4908 Y-13.0382
X-.5808 Y-13.0841
X-.6787 Y-13.1093
X-.7798 Y-13.1126
X-.8791 Y-13.0939
X-.972 Y-13.054
X-1.054 Y-12.9948
X-1.1211 Y-12.9193
X-1.1702 Y-12.8309
X-1.199 Y-12.734
X-1.2059 Y-12.6331
X-1.1908 Y-12.5332
X-1.1542 Y-12.4389
X-1.0981 Y-12.3549
X-1.025 Y-12.285
X-.9385 Y-12.2328
X-.8426 Y-12.2006
X-.7421 Y-12.19
X-.6417 Y-12.2015
X-.6037 Y-12.2119 F96.
X-.5737 Y-12.2094
X-.5542 Y-12.1864
X-.5423 Y-12.1489
X2.5027 Y-2.6169 F120.
X2.5147 Y-2.5794 F96.
X2.5122 Y-2.5493
X2.4892 Y-2.5299
X2.4521 Y-2.5167
X2.3463 Y-2.4629 F120.
X2.2529 Y-2.3896
X2.1753 Y-2.2997
X2.1166 Y-2.1965
X2.0789 Y-2.0839
X2.0637 Y-1.9661
X2.0715 Y-1.8477
X2.102 Y-1.7329
X2.1541 Y-1.6262
X2.2258 Y-1.5316
X2.3145 Y-1.4526
X2.4167 Y-1.3922
X2.5286 Y-1.3527
X2.6461 Y-1.3355
X2.7647 Y-1.3414
X2.88 Y-1.37
X2.9875 Y-1.4203
X3.0833 Y-1.4905
X3.1637 Y-1.5778
X3.2258 Y-1.679
X3.2671 Y-1.7903
X3.2862 Y-1.9075
X3.2875 Y-1.9469 F96.
X3.299 Y-1.9747
X3.3269 Y-1.9862
X3.3662
X6.6855 F120.
X6.7038 Y-2.1123
X6.7442 Y-2.2332
X6.8054 Y-2.3449
X6.8854 Y-2.4441
X6.9818 Y-2.5275
X7.0914 Y-2.5924
X7.2108 Y-2.6369
X7.3362 Y-2.6595
X7.4636
X7.589 Y-2.6369
X7.7084 Y-2.5924
X7.8181 Y-2.5275
X7.9144 Y-2.4441
X7.9944 Y-2.3449
X8.0556 Y-2.2332
X8.096 Y-2.1123
X8.1143 Y-1.9862
X11.4336
X11.4729 F96.
X11.5008 Y-1.9747
X11.5123 Y-1.9469
X11.5136 Y-1.9075
X11.5326 Y-1.7904 F120.
X11.574 Y-1.6791
X11.636 Y-1.5779
X11.7164 Y-1.4906
X11.8121 Y-1.4205
X11.9195 Y-1.3701
X12.0347 Y-1.3414
X12.1532 Y-1.3355
X12.2706 Y-1.3525
X12.3826 Y-1.392
X12.4848 Y-1.4522
X12.5735 Y-1.5311
X12.6453 Y-1.6256
X12.6975 Y-1.7322
X12.7282 Y-1.8468
X12.7361 Y-1.9652
X12.7211 Y-2.0829
X12.6836 Y-2.1955
X12.6251 Y-2.2988
X12.5478 Y-2.3888
X12.4545 Y-2.4622
X12.3488 Y-2.5162
X12.3118 Y-2.5295 F96.
X12.2888 Y-2.549
X12.2864 Y-2.579
X12.2984 Y-2.6165
X15.3648 Y-12.1493 F120.
X15.3769 Y-12.1868 F96.
X15.3964 Y-12.2097
X15.4264 Y-12.2122
X15.4644 Y-12.2017
X15.5649 Y-12.19 F120.
X15.6655 Y-12.2004
X15.7614 Y-12.2325
X15.8481 Y-12.2847
X15.9214 Y-12.3545
X15.9776 Y-12.4385
X16.0143 Y-12.5328
X16.0295 Y-12.6329
X16.0226 Y-12.7338
X15.9939 Y-12.8308
X15.9448 Y-12.9192
X15.8775 Y-12.9949
X15.7955 Y-13.054
X15.7025 Y-13.0939
X15.6031 Y-13.1127
X15.502 Y-13.1093
X15.404 Y-13.084
X15.314 Y-13.0379
X15.236 Y-12.9734
X15.174 Y-12.8935
X15.1309 Y-12.8019
X15.1197 Y-12.7642 F96.
X15.1018 Y-12.74
X15.072 Y-12.7356
X15.0338 Y-12.7451
X12.7849 Y-13.3082 F120.
X12.7467 Y-13.3178 F96.
X12.7225 Y-13.3357
X12.7181 Y-13.3655
X12.7264 Y-13.404
X12.7364 Y-13.5211 F120.
X12.7238 Y-13.638
X12.689 Y-13.7502
X12.6335 Y-13.8538
X12.5592 Y-13.9449
X12.4688 Y-14.0201
X12.3658 Y-14.0766
X12.2538 Y-14.1124
X12.1371 Y-14.1261
X12.0199 Y-14.1172
X11.9065 Y-14.0861
X11.8012 Y-14.034
X11.7078 Y-13.9626
X11.6298 Y-13.8747
X11.57 Y-13.7736
X11.5306 Y-13.6628
X11.5132 Y-13.5466
X11.5182 Y-13.4292
X11.5457 Y-13.3149
X11.5944 Y-13.2079
X11.6627 Y-13.1123
X11.748 Y-13.0314
X11.8473 Y-12.9684
X11.9567 Y-12.9255
X12.0723 Y-12.9043
X12.1898 Y-12.9056
X12.3049 Y-12.9294
X12.4134 Y-12.9747
X12.5112 Y-13.0398
X12.5947 Y-13.1225
X12.6609 Y-13.2197
X12.7073 Y-13.3277
X12.7181 Y-13.3655 F96.
X12.736 Y-13.3897
X12.7658 Y-13.3941
X12.804 Y-13.3846
X15.0529 Y-12.8215 F120.
X15.0911 Y-12.8119 F96.
X15.1153 Y-12.794
X15.1197 Y-12.7642
X15.1118 Y-12.7256
X15.1068 Y-12.6232 F120.
X15.1245 Y-12.5222
X15.164 Y-12.4276
X15.2235 Y-12.3441
X15.2999 Y-12.2757
X15.3895 Y-12.2258
X15.4264 Y-12.2122 F96.
X15.4494 Y-12.1927
X15.4519 Y-12.1626
X15.4398 Y-12.1252
X12.3734 Y-2.5924 F120.
X12.3613 Y-2.5549 F96.
X12.3418 Y-2.532
X12.3118 Y-2.5295
X12.2739 Y-2.5404
X12.1562 Y-2.5581 F120.
X12.0373 Y-2.5527
X11.9216 Y-2.5244
X11.8137 Y-2.4742
X11.7175 Y-2.4041
X11.6366 Y-2.3167
X11.5743 Y-2.2153
X11.5327 Y-2.1037
X11.5136 Y-1.9862
X11.5123 Y-1.9469 F96.
X11.5008 Y-1.919
X11.4729 Y-1.9075
X11.4336
X8.1942 F120.
X8.1548 F96.
X8.127 Y-1.919
X8.1154 Y-1.9469
X8.1143 Y-1.9862
X8.096 Y-2.1123 F120.
X8.0556 Y-2.2332
X7.9944 Y-2.3449
X7.9144 Y-2.4441
X7.8181 Y-2.5275
X7.7084 Y-2.5924
X7.589 Y-2.6369
X7.4636 Y-2.6595
X7.3362
X7.2108 Y-2.6369
X7.0914 Y-2.5924
X6.9818 Y-2.5275
X6.8854 Y-2.4441
X6.8054 Y-2.345
X6.7442 Y-2.2332
